luts/adobergb_transfer_to_lin.spi1d
Version 1
From 0 1
Length 65561
Components 1
{
        0.0
        2.55362616989e-11
        1.17270325656e-10
        2.86056176731e-10
        5.38541210206e-10
        8.79721608491e-10
        1.31365747253e-09
        1.84379560568e-09
        2.4731459853e-09
        3.20438978934e-09
        4.03995074654e-09
        4.98204492838e-09
        6.03271698184e-09
        7.19386737928e-09
        8.46727346668e-09
        9.85460608447e-09
        1.13574429378e-08
        1.29772795238e-08
        1.47155381847e-08
        1.65735756987e-08
        1.85526897111e-08
        2.06541242353e-08
        2.28790743952e-08
        2.52286905466e-08
        2.77040818814e-08
        3.03063196004e-08
        3.30364397202e-08
        3.58954455708e-08
        3.8884310028e-08
        4.20039775163e-08
        4.52553658153e-08
        4.86393676925e-08
        5.21568523868e-08
        5.58086669583e-08
        5.95956375225e-08
        6.35185703798e-08
        6.75782530534e-08
        7.17754552457e-08
        7.61109297196e-08
        8.05854131153e-08
        8.51996267062e-08
        8.9954277102e-08
        9.48500569024e-08
        9.98876453066e-08
        1.05067708683e-07
        1.10390901102e-07
        1.15857864834e-07
        1.21469230818e-07
        1.27225619104e-07
        1.33127639261e-07
        1.39175890774e-07
        1.45370963406e-07
        1.51713437549e-07
        1.58203884552e-07
        1.64842867029e-07
        1.71630939158e-07
        1.78568646956e-07
        1.85656528548e-07
        1.92895114417e-07
        2.00284927643e-07
        2.07826484135e-07
        2.15520292844e-07
        2.23366855974e-07
        2.31366669176e-07
        2.39520221742e-07
        2.47827996783e-07
        2.56290471401e-07
        2.64908116856e-07
        2.73681398724e-07
        2.8261077705e-07
        2.9169670649e-07
        3.00939636456e-07
        3.10340011247e-07
        3.19898270177e-07
        3.29614847702e-07
        3.39490173538e-07
        3.49524672775e-07
        3.59718765987e-07
        3.70072869341e-07
        3.80587394698e-07
        3.9126274971e-07
        4.02099337919e-07
        4.13097558848e-07
        4.24257808087e-07
        4.35580477385e-07
        4.47065954726e-07
        4.58714624413e-07
        4.70526867147e-07
        4.82503060099e-07
        4.94643576984e-07
        5.06948788132e-07
        5.19419060556e-07
        5.32054758017e-07
        5.44856241089e-07
        5.57823867221e-07
        5.70957990797e-07
        5.84258963195e-07
        5.97727132844e-07
        6.11362845276e-07
        6.25166443186e-07
        6.39138266476e-07
        6.53278652312e-07
        6.67587935171e-07
        6.82066446886e-07
        6.96714516698e-07
        7.11532471295e-07
        7.26520634862e-07
        7.41679329119e-07
        7.57008873364e-07
        7.72509584518e-07
        7.88181777155e-07
        8.04025763551e-07
        8.20041853716e-07
        8.36230355428e-07
        8.52591574278e-07
        8.69125813693e-07
        8.85833374981e-07
        9.02714557356e-07
        9.19769657974e-07
        9.36998971966e-07
        9.54402792463e-07
        9.71981410634e-07
        9.89735115709e-07
        1.00766419501e-06
        1.02576893398e-06
        1.04404961622e-06
        1.06250652347e-06
        1.08113993572e-06
        1.09995013116e-06
        1.11893738621e-06
        1.13810197562e-06
        1.15744417239e-06
        1.17696424787e-06
        1.19666247174e-06
        1.21653911207e-06
        1.23659443529e-06
        1.25682870629e-06
        1.27724218834e-06
        1.29783514319e-06
        1.31860783108e-06
        1.33956051071e-06
        1.36069343932e-06
        1.38200687267e-06
        1.40350106507e-06
        1.42517626942e-06
        1.44703273719e-06
        1.46907071845e-06
        1.4912904619e-06
        1.51369221489e-06
        1.53627622342e-06
        1.55904273215e-06
        1.58199198444e-06
        1.60512422235e-06
        1.62843968667e-06
        1.65193861691e-06
        1.67562125134e-06
        1.69948782699e-06
        1.72353857967e-06
        1.74777374398e-06
        1.77219355333e-06
        1.79679823995e-06
        1.8215880349e-06
        1.84656316809e-06
        1.87172386828e-06
        1.89707036312e-06
        1.92260287912e-06
        1.94832164172e-06
        1.97422687523e-06
        2.00031880291e-06
        2.02659764694e-06
        2.05306362844e-06
        2.0797169675e-06
        2.10655788315e-06
        2.13358659343e-06
        2.16080331533e-06
        2.18820826488e-06
        2.21580165707e-06
        2.24358370595e-06
        2.27155462458e-06
        2.29971462505e-06
        2.32806391852e-06
        2.3566027152e-06
        2.38533122434e-06
        2.41424965431e-06
        2.44335821254e-06
        2.47265710555e-06
        2.50214653897e-06
        2.53182671756e-06
        2.56169784517e-06
        2.59176012479e-06
        2.62201375856e-06
        2.65245894775e-06
        2.68309589278e-06
        2.71392479326e-06
        2.74494584793e-06
        2.77615925473e-06
        2.80756521079e-06
        2.83916391242e-06
        2.87095555513e-06
        2.90294033363e-06
        2.93511844187e-06
        2.967490073e-06
        3.00005541939e-06
        3.03281467268e-06
        3.06576802371e-06
        3.0989156626e-06
        3.1322577787e-06
        3.16579456066e-06
        3.19952619635e-06
        3.23345287295e-06
        3.2675747769e-06
        3.30189209394e-06
        3.33640500911e-06
        3.37111370672e-06
        3.40601837041e-06
        3.44111918313e-06
        3.47641632713e-06
        3.511909984e-06
        3.54760033465e-06
        3.58348755933e-06
        3.61957183761e-06
        3.65585334843e-06
        3.69233227006e-06
        3.72900878014e-06
        3.76588305566e-06
        3.80295527298e-06
        3.84022560784e-06
        3.87769423533e-06
        3.91536132994e-06
        3.95322706555e-06
        3.99129161542e-06
        4.0295551522e-06
        4.06801784795e-06
        4.10667987414e-06
        4.14554140163e-06
        4.18460260071e-06
        4.22386364108e-06
        4.26332469188e-06
        4.30298592164e-06
        4.34284749837e-06
        4.38290958946e-06
        4.4231723618e-06
        4.46363598167e-06
        4.50430061484e-06
        4.54516642651e-06
        4.58623358134e-06
        4.62750224345e-06
        4.66897257642e-06
        4.71064474332e-06
        4.75251890667e-06
        4.79459522848e-06
        4.83687387022e-06
        4.87935499286e-06
        4.92203875686e-06
        4.96492532215e-06
        5.00801484819e-06
        5.05130749391e-06
        5.09480341774e-06
        5.13850277763e-06
        5.18240573104e-06
        5.22651243492e-06
        5.27082304576e-06
        5.31533771956e-06
        5.36005661184e-06
        5.40497987764e-06
        5.45010767155e-06
        5.49544014766e-06
        5.54097745962e-06
        5.58671976061e-06
        5.63266720335e-06
        5.67881994011e-06
        5.72517812269e-06
        5.77174190248e-06
        5.81851143037e-06
        5.86548685684e-06
        5.91266833194e-06
        5.96005600524e-06
        6.00765002592e-06
        6.05545054269e-06
        6.10345770386e-06
        6.1516716573e-06
        6.20009255046e-06
        6.24872053036e-06
        6.29755574361e-06
        6.34659833641e-06
        6.39584845453e-06
        6.44530624335e-06
        6.49497184782e-06
        6.5448454125e-06
        6.59492708155e-06
        6.64521699871e-06
        6.69571530734e-06
        6.74642215041e-06
        6.79733767048e-06
        6.84846200972e-06
        6.89979530992e-06
        6.95133771249e-06
        7.00308935845e-06
        7.05505038844e-06
        7.1072209427e-06
        7.15960116114e-06
        7.21219118325e-06
        7.26499114818e-06
        7.31800119469e-06
        7.37122146118e-06
        7.42465208569e-06
        7.47829320589e-06
        7.53214495909e-06
        7.58620748224e-06
        7.64048091194e-06
        7.69496538443e-06
        7.74966103559e-06
        7.80456800097e-06
        7.85968641575e-06
        7.91501641477e-06
        7.97055813253e-06
        8.0263117032e-06
        8.08227726057e-06
        8.13845493813e-06
        8.19484486902e-06
        8.25144718604e-06
        8.30826202166e-06
        8.36528950802e-06
        8.42252977694e-06
        8.4799829599e-06
        8.53764918805e-06
        8.59552859222e-06
        8.65362130294e-06
        8.7119274504e-06
        8.77044716446e-06
        8.82918057469e-06
        8.88812781032e-06
        8.94728900029e-06
        9.00666427321e-06
        9.06625375739e-06
        9.12605758083e-06
        9.18607587122e-06
        9.24630875594e-06
        9.3067563621e-06
        9.36741881646e-06
        9.42829624551e-06
        9.48938877543e-06
        9.55069653212e-06
        9.61221964116e-06
        9.67395822785e-06
        9.73591241721e-06
        9.79808233394e-06
        9.86046810247e-06
        9.92306984694e-06
        9.9858876912e-06
        1.00489217588e-05
        1.01121721731e-05
        1.0175639057e-05
        1.02393225333e-05
        1.03032227244e-05
        1.03673397525e-05
        1.04316737395e-05
        1.0496224807e-05
        1.05609930763e-05
        1.06259786685e-05
        1.06911817044e-05
        1.07566023045e-05
        1.08222405892e-05
        1.08880966783e-05
        1.09541706916e-05
        1.10204627487e-05
        1.10869729687e-05
        1.11537014705e-05
        1.12206483728e-05
        1.12878137941e-05
        1.13551978525e-05
        1.14228006659e-05
        1.1490622352e-05
        1.15586630283e-05
        1.16269228117e-05
        1.16954018193e-05
        1.17641001677e-05
        1.18330179733e-05
        1.19021553523e-05
        1.19715124205e-05
        1.20410892936e-05
        1.2110886087e-05
        1.2180902916e-05
        1.22511398954e-05
        1.23215971399e-05
        1.2392274764e-05
        1.24631728819e-05
        1.25342916076e-05
        1.26056310548e-05
        1.2677191337e-05
        1.27489725675e-05
        1.28209748593e-05
        1.28931983253e-05
        1.2965643078e-05
        1.30383092297e-05
        1.31111968926e-05
        1.31843061785e-05
        1.32576371992e-05
        1.33311900661e-05
        1.34049648903e-05
        1.34789617829e-05
        1.35531808546e-05
        1.3627622216e-05
        1.37022859774e-05
        1.37771722489e-05
        1.38522811404e-05
        1.39276127615e-05
        1.40031672218e-05
        1.40789446304e-05
        1.41549450964e-05
        1.42311687285e-05
        1.43076156355e-05
        1.43842859256e-05
        1.4461179707e-05
        1.45382970877e-05
        1.46156381755e-05
        1.46932030778e-05
        1.47709919021e-05
        1.48490047555e-05
        1.49272417448e-05
        1.50057029768e-05
        1.50843885581e-05
        1.51632985949e-05
        1.52424331934e-05
        1.53217924594e-05
        1.54013764987e-05
        1.54811854167e-05
        1.55612193189e-05
        1.56414783103e-05
        1.57219624958e-05
        1.58026719801e-05
        1.58836068679e-05
        1.59647672633e-05
        1.60461532706e-05
        1.61277649938e-05
        1.62096025364e-05
        1.62916660022e-05
        1.63739554944e-05
        1.64564711163e-05
        1.65392129709e-05
        1.66221811609e-05
        1.6705375789e-05
        1.67887969577e-05
        1.68724447691e-05
        1.69563193253e-05
        1.70404207282e-05
        1.71247490795e-05
        1.72093044807e-05
        1.72940870331e-05
        1.73790968379e-05
        1.7464333996e-05
        1.75497986082e-05
        1.76354907752e-05
        1.77214105973e-05
        1.78075581749e-05
        1.78939336079e-05
        1.79805369963e-05
        1.80673684398e-05
        1.81544280379e-05
        1.824171589e-05
        1.83292320954e-05
        1.8416976753e-05
        1.85049499617e-05
        1.85931518202e-05
        1.86815824269e-05
        1.87702418803e-05
        1.88591302785e-05
        1.89482477195e-05
        1.90375943011e-05
        1.9127170121e-05
        1.92169752767e-05
        1.93070098655e-05
        1.93972739846e-05
        1.94877677311e-05
        1.95784912016e-05
        1.9669444493e-05
        1.97606277017e-05
        1.9852040924e-05
        1.99436842563e-05
        2.00355577944e-05
        2.01276616342e-05
        2.02199958715e-05
        2.03125606018e-05
        2.04053559204e-05
        2.04983819227e-05
        2.05916387036e-05
        2.06851263581e-05
        2.0778844981e-05
        2.08727946668e-05
        2.09669755099e-05
        2.10613876048e-05
        2.11560310455e-05
        2.12509059259e-05
        2.134601234e-05
        2.14413503814e-05
        2.15369201436e-05
        2.16327217199e-05
        2.17287552037e-05
        2.1825020688e-05
        2.19215182657e-05
        2.20182480295e-05
        2.21152100721e-05
        2.2212404486e-05
        2.23098313636e-05
        2.24074907968e-05
        2.25053828779e-05
        2.26035076987e-05
        2.2701865351e-05
        2.28004559263e-05
        2.2899279516e-05
        2.29983362116e-05
        2.30976261041e-05
        2.31971492846e-05
        2.32969058439e-05
        2.33968958729e-05
        2.3497119462e-05
        2.35975767018e-05
        2.36982676826e-05
        2.37991924944e-05
        2.39003512275e-05
        2.40017439716e-05
        2.41033708165e-05
        2.42052318519e-05
        2.43073271672e-05
        2.44096568517e-05
        2.45122209947e-05
        2.46150196852e-05
        2.47180530122e-05
        2.48213210645e-05
        2.49248239307e-05
        2.50285616994e-05
        2.51325344589e-05
        2.52367422976e-05
        2.53411853035e-05
        2.54458635647e-05
        2.5550777169e-05
        2.56559262041e-05
        2.57613107577e-05
        2.58669309172e-05
        2.597278677e-05
        2.60788784032e-05
        2.6185205904e-05
        2.62917693593e-05
        2.6398568856e-05
        2.65056044807e-05
        2.661287632e-05
        2.67203844603e-05
        2.68281289879e-05
        2.69361099892e-05
        2.704432755e-05
        2.71527817563e-05
        2.7261472694e-05
        2.73704004487e-05
        2.74795651061e-05
        2.75889667514e-05
        2.76986054701e-05
        2.78084813474e-05
        2.79185944682e-05
        2.80289449176e-05
        2.81395327804e-05
        2.82503581412e-05
        2.83614210847e-05
        2.84727216953e-05
        2.85842600573e-05
        2.8696036255e-05
        2.88080503725e-05
        2.89203024937e-05
        2.90327927025e-05
        2.91455210827e-05
        2.92584877179e-05
        2.93716926915e-05
        2.9485136087e-05
        2.95988179876e-05
        2.97127384766e-05
        2.98268976368e-05
        2.99412955514e-05
        3.00559323029e-05
        3.01708079743e-05
        3.0285922648e-05
        3.04012764064e-05
        3.0516869332e-05
        3.0632701507e-05
        3.07487730135e-05
        3.08650839335e-05
        3.09816343489e-05
        3.10984243414e-05
        3.12154539928e-05
        3.13327233847e-05
        3.14502325983e-05
        3.15679817152e-05
        3.16859708165e-05
        3.18041999834e-05
        3.19226692968e-05
        3.20413788376e-05
        3.21603286866e-05
        3.22795189246e-05
        3.2398949632e-05
        3.25186208893e-05
        3.2638532777e-05
        3.27586853751e-05
        3.28790787639e-05
        3.29997130234e-05
        3.31205882336e-05
        3.32417044741e-05
        3.33630618248e-05
        3.34846603653e-05
        3.3606500175e-05
        3.37285813333e-05
        3.38509039196e-05
        3.3973468013e-05
        3.40962736926e-05
        3.42193210374e-05
        3.43426101262e-05
        3.44661410379e-05
        3.4589913851e-05
        3.47139286442e-05
        3.48381854959e-05
        3.49626844844e-05
        3.50874256881e-05
        3.52124091851e-05
        3.53376350534e-05
        3.5463103371e-05
        3.55888142158e-05
        3.57147676655e-05
        3.58409637977e-05
        3.596740269e-05
        3.60940844199e-05
        3.62210090647e-05
        3.63481767017e-05
        3.6475587408e-05
        3.66032412608e-05
        3.67311383368e-05
        3.68592787131e-05
        3.69876624664e-05
        3.71162896733e-05
        3.72451604104e-05
        3.73742747543e-05
        3.75036327812e-05
        3.76332345675e-05
        3.77630801893e-05
        3.78931697227e-05
        3.80235032438e-05
        3.81540808284e-05
        3.82849025524e-05
        3.84159684914e-05
        3.85472787211e-05
        3.86788333169e-05
        3.88106323544e-05
        3.89426759089e-05
        3.90749640555e-05
        3.92074968695e-05
        3.93402744259e-05
        3.94732967997e-05
        3.96065640658e-05
        3.97400762988e-05
        3.98738335736e-05
        4.00078359647e-05
        4.01420835466e-05
        4.02765763937e-05
        4.04113145804e-05
        4.05462981809e-05
        4.06815272694e-05
        4.08170019198e-05
        4.09527222062e-05
        4.10886882025e-05
        4.12248999823e-05
        4.13613576195e-05
        4.14980611876e-05
        4.16350107602e-05
        4.17722064107e-05
        4.19096482123e-05
        4.20473362385e-05
        4.21852705623e-05
        4.23234512569e-05
        4.24618783952e-05
        4.26005520501e-05
        4.27394722945e-05
        4.28786392011e-05
        4.30180528425e-05
        4.31577132913e-05
        4.329762062e-05
        4.3437774901e-05
        4.35781762066e-05
        4.3718824609e-05
        4.38597201803e-05
        4.40008629926e-05
        4.41422531178e-05
        4.4283890628e-05
        4.44257755947e-05
        4.45679080899e-05
        4.4710288185e-05
        4.48529159516e-05
        4.49957914613e-05
        4.51389147854e-05
        4.52822859952e-05
        4.54259051619e-05
        4.55697723566e-05
        4.57138876505e-05
        4.58582511144e-05
        4.60028628194e-05
        4.61477228361e-05
        4.62928312353e-05
        4.64381880877e-05
        4.65837934638e-05
        4.67296474342e-05
        4.68757500691e-05
        4.70221014391e-05
        4.71687016142e-05
        4.73155506647e-05
        4.74626486607e-05
        4.76099956721e-05
        4.7757591769e-05
        4.79054370211e-05
        4.80535314982e-05
        4.820187527e-05
        4.83504684062e-05
        4.84993109762e-05
        4.86484030496e-05
        4.87977446957e-05
        4.89473359838e-05
        4.90971769832e-05
        4.9247267763e-05
        4.93976083922e-05
        4.95481989399e-05
        4.9699039475e-05
        4.98501300664e-05
        5.00014707827e-05
        5.01530616927e-05
        5.03049028651e-05
        5.04569943683e-05
        5.06093362709e-05
        5.07619286411e-05
        5.09147715474e-05
        5.10678650579e-05
        5.12212092409e-05
        5.13748041644e-05
        5.15286498965e-05
        5.16827465051e-05
        5.1837094058e-05
        5.1991692623e-05
        5.2146542268e-05
        5.23016430604e-05
        5.2456995068e-05
        5.26125983582e-05
        5.27684529984e-05
        5.2924559056e-05
        5.30809165983e-05
        5.32375256925e-05
        5.33943864057e-05
        5.3551498805e-05
        5.37088629574e-05
        5.38664789299e-05
        5.40243467892e-05
        5.41824666021e-05
        5.43408384355e-05
        5.44994623559e-05
        5.46583384298e-05
        5.48174667238e-05
        5.49768473044e-05
        5.51364802378e-05
        5.52963655903e-05
        5.54565034283e-05
        5.56168938178e-05
        5.57775368249e-05
        5.59384325155e-05
        5.60995809558e-05
        5.62609822115e-05
        5.64226363484e-05
        5.65845434323e-05
        5.67467035288e-05
        5.69091167036e-05
        5.70717830221e-05
        5.72347025498e-05
        5.73978753522e-05
        5.75613014944e-05
        5.77249810419e-05
        5.78889140598e-05
        5.80531006131e-05
        5.82175407671e-05
        5.83822345865e-05
        5.85471821365e-05
        5.87123834818e-05
        5.88778386872e-05
        5.90435478174e-05
        5.92095109371e-05
        5.9375728111e-05
        5.95421994034e-05
        5.97089248788e-05
        5.98759046018e-05
        6.00431386365e-05
        6.02106270473e-05
        6.03783698983e-05
        6.05463672537e-05
        6.07146191775e-05
        6.08831257337e-05
        6.10518869864e-05
        6.12209029992e-05
        6.13901738362e-05
        6.15596995609e-05
        6.17294802371e-05
        6.18995159285e-05
        6.20698066984e-05
        6.22403526105e-05
        6.24111537282e-05
        6.25822101148e-05
        6.27535218336e-05
        6.29250889479e-05
        6.30969115208e-05
        6.32689896155e-05
        6.34413232949e-05
        6.36139126222e-05
        6.37867576601e-05
        6.39598584716e-05
        6.41332151194e-05
        6.43068276664e-05
        6.44806961751e-05
        6.46548207082e-05
        6.48292013283e-05
        6.50038380977e-05
        6.5178731079e-05
        6.53538803346e-05
        6.55292859267e-05
        6.57049479175e-05
        6.58808663694e-05
        6.60570413443e-05
        6.62334729043e-05
        6.64101611116e-05
        6.65871060279e-05
        6.67643077152e-05
        6.69417662354e-05
        6.71194816501e-05
        6.72974540211e-05
        6.747568341e-05
        6.76541698784e-05
        6.78329134879e-05
        6.80119142999e-05
        6.81911723758e-05
        6.8370687777e-05
        6.85504605647e-05
        6.87304908002e-05
        6.89107785447e-05
        6.90913238593e-05
        6.9272126805e-05
        6.94531874428e-05
        6.96345058338e-05
        6.98160820386e-05
        6.99979161183e-05
        7.01800081336e-05
        7.03623581451e-05
        7.05449662135e-05
        7.07278323995e-05
        7.09109567635e-05
        7.1094339366e-05
        7.12779802675e-05
        7.14618795284e-05
        7.16460372089e-05
        7.18304533693e-05
        7.20151280697e-05
        7.22000613705e-05
        7.23852533315e-05
        7.25707040129e-05
        7.27564134747e-05
        7.29423817767e-05
        7.31286089788e-05
        7.33150951408e-05
        7.35018403225e-05
        7.36888445836e-05
        7.38761079837e-05
        7.40636305823e-05
        7.42514124391e-05
        7.44394536136e-05
        7.4627754165e-05
        7.48163141528e-05
        7.50051336363e-05
        7.51942126748e-05
        7.53835513275e-05
        7.55731496534e-05
        7.57630077118e-05
        7.59531255616e-05
        7.61435032619e-05
        7.63341408715e-05
        7.65250384494e-05
        7.67161960543e-05
        7.69076137451e-05
        7.70992915805e-05
        7.72912296191e-05
        7.74834279196e-05
        7.76758865404e-05
        7.78686055402e-05
        7.80615849773e-05
        7.82548249102e-05
        7.84483253973e-05
        7.86420864967e-05
        7.88361082668e-05
        7.90303907658e-05
        7.92249340517e-05
        7.94197381827e-05
        7.96148032169e-05
        7.98101292121e-05
        8.00057162264e-05
        8.02015643176e-05
        8.03976735435e-05
        8.05940439619e-05
        8.07906756306e-05
        8.09875686072e-05
        8.11847229494e-05
        8.13821387146e-05
        8.15798159605e-05
        8.17777547445e-05
        8.19759551241e-05
        8.21744171565e-05
        8.23731408992e-05
        8.25721264093e-05
        8.27713737442e-05
        8.29708829609e-05
        8.31706541166e-05
        8.33706872684e-05
        8.35709824733e-05
        8.37715397882e-05
        8.39723592701e-05
        8.41734409758e-05
        8.43747849621e-05
        8.45763912859e-05
        8.47782600039e-05
        8.49803911726e-05
