luts/clamp.spi1d
Version 1
From -1e-09 1.0
Length 65561
Components 1
{
        0
        1.52532031727e-05
        3.05064063453e-05
        4.5759609518e-05
        6.10128126907e-05
        7.62660158633e-05
        9.1519219036e-05
        0.000106772422209
        0.000122025625381
        0.000137278828554
        0.000152532031727
        0.000167785234899
        0.000183038438072
        0.000198291641245
        0.000213544844417
        0.00022879804759
        0.000244051250763
        0.000259304453935
        0.000274557657108
        0.000289810860281
        0.000305064063453
        0.000320317266626
        0.000335570469799
        0.000350823672971
        0.000366076876144
        0.000381330079317
        0.000396583282489
        0.000411836485662
        0.000427089688835
        0.000442342892007
        0.00045759609518
        0.000472849298353
        0.000488102501525
        0.000503355704698
        0.000518608907871
        0.000533862111043
        0.000549115314216
        0.000564368517389
        0.000579621720561
        0.000594874923734
        0.000610128126907
        0.000625381330079
        0.000640634533252
        0.000655887736425
        0.000671140939597
        0.00068639414277
        0.000701647345943
        0.000716900549115
        0.000732153752288
        0.000747406955461
        0.000762660158633
        0.000777913361806
        0.000793166564979
        0.000808419768151
        0.000823672971324
        0.000838926174497
        0.000854179377669
        0.000869432580842
        0.000884685784015
        0.000899938987187
        0.00091519219036
        0.000930445393533
        0.000945698596705
        0.000960951799878
        0.000976205003051
        0.000991458206223
        0.0010067114094
        0.00102196461257
        0.00103721781574
        0.00105247101891
        0.00106772422209
        0.00108297742526
        0.00109823062843
        0.0011134838316
        0.00112873703478
        0.00114399023795
        0.00115924344112
        0.0011744966443
        0.00118974984747
        0.00120500305064
        0.00122025625381
        0.00123550945699
        0.00125076266016
        0.00126601586333
        0.0012812690665
        0.00129652226968
        0.00131177547285
        0.00132702867602
        0.00134228187919
        0.00135753508237
        0.00137278828554
        0.00138804148871
        0.00140329469189
        0.00141854789506
        0.00143380109823
        0.0014490543014
        0.00146430750458
        0.00147956070775
        0.00149481391092
        0.00151006711409
        0.00152532031727
        0.00154057352044
        0.00155582672361
        0.00157107992678
        0.00158633312996
        0.00160158633313
        0.0016168395363
        0.00163209273948
        0.00164734594265
        0.00166259914582
        0.00167785234899
        0.00169310555217
        0.00170835875534
        0.00172361195851
        0.00173886516168
        0.00175411836486
        0.00176937156803
        0.0017846247712
        0.00179987797437
        0.00181513117755
        0.00183038438072
        0.00184563758389
        0.00186089078707
        0.00187614399024
        0.00189139719341
        0.00190665039658
        0.00192190359976
        0.00193715680293
        0.0019524100061
        0.00196766320927
        0.00198291641245
        0.00199816961562
        0.00201342281879
        0.00202867602196
        0.00204392922514
        0.00205918242831
        0.00207443563148
        0.00208968883466
        0.00210494203783
        0.002120195241
        0.00213544844417
        0.00215070164735
        0.00216595485052
        0.00218120805369
        0.00219646125686
        0.00221171446004
        0.00222696766321
        0.00224222086638
        0.00225747406955
        0.00227272727273
        0.0022879804759
        0.00230323367907
        0.00231848688225
        0.00233374008542
        0.00234899328859
        0.00236424649176
        0.00237949969494
        0.00239475289811
        0.00241000610128
        0.00242525930445
        0.00244051250763
        0.0024557657108
        0.00247101891397
        0.00248627211714
        0.00250152532032
        0.00251677852349
        0.00253203172666
        0.00254728492984
        0.00256253813301
        0.00257779133618
        0.00259304453935
        0.00260829774253
        0.0026235509457
        0.00263880414887
        0.00265405735204
        0.00266931055522
        0.00268456375839
        0.00269981696156
        0.00271507016473
        0.00273032336791
        0.00274557657108
        0.00276082977425
        0.00277608297743
        0.0027913361806
        0.00280658938377
        0.00282184258694
        0.00283709579012
        0.00285234899329
        0.00286760219646
        0.00288285539963
        0.00289810860281
        0.00291336180598
        0.00292861500915
        0.00294386821232
        0.0029591214155
        0.00297437461867
        0.00298962782184
        0.00300488102502
        0.00302013422819
        0.00303538743136
        0.00305064063453
        0.00306589383771
        0.00308114704088
        0.00309640024405
        0.00311165344722
        0.0031269066504
        0.00314215985357
        0.00315741305674
        0.00317266625991
        0.00318791946309
        0.00320317266626
        0.00321842586943
        0.00323367907261
        0.00324893227578
        0.00326418547895
        0.00327943868212
        0.0032946918853
        0.00330994508847
        0.00332519829164
        0.00334045149481
        0.00335570469799
        0.00337095790116
        0.00338621110433
        0.0034014643075
        0.00341671751068
        0.00343197071385
        0.00344722391702
        0.0034624771202
        0.00347773032337
        0.00349298352654
        0.00350823672971
        0.00352348993289
        0.00353874313606
        0.00355399633923
        0.0035692495424
        0.00358450274558
        0.00359975594875
        0.00361500915192
        0.00363026235509
        0.00364551555827
        0.00366076876144
        0.00367602196461
        0.00369127516779
        0.00370652837096
        0.00372178157413
        0.0037370347773
        0.00375228798048
        0.00376754118365
        0.00378279438682
        0.00379804758999
        0.00381330079317
        0.00382855399634
        0.00384380719951
        0.00385906040268
        0.00387431360586
        0.00388956680903
        0.0039048200122
        0.00392007321538
        0.00393532641855
        0.00395057962172
        0.00396583282489
        0.00398108602807
        0.00399633923124
        0.00401159243441
        0.00402684563758
        0.00404209884076
        0.00405735204393
        0.0040726052471
        0.00408785845027
        0.00410311165345
        0.00411836485662
        0.00413361805979
        0.00414887126297
        0.00416412446614
        0.00417937766931
        0.00419463087248
        0.00420988407566
        0.00422513727883
        0.004240390482
        0.00425564368517
        0.00427089688835
        0.00428615009152
        0.00430140329469
        0.00431665649786
        0.00433190970104
        0.00434716290421
        0.00436241610738
        0.00437766931056
        0.00439292251373
        0.0044081757169
        0.00442342892007
        0.00443868212325
        0.00445393532642
        0.00446918852959
        0.00448444173276
        0.00449969493594
        0.00451494813911
        0.00453020134228
        0.00454545454545
        0.00456070774863
        0.0045759609518
        0.00459121415497
        0.00460646735815
        0.00462172056132
        0.00463697376449
        0.00465222696766
        0.00466748017084
        0.00468273337401
        0.00469798657718
        0.00471323978035
        0.00472849298353
        0.0047437461867
        0.00475899938987
        0.00477425259304
        0.00478950579622
        0.00480475899939
        0.00482001220256
        0.00483526540574
        0.00485051860891
        0.00486577181208
        0.00488102501525
        0.00489627821843
        0.0049115314216
        0.00492678462477
        0.00494203782794
        0.00495729103112
        0.00497254423429
        0.00498779743746
        0.00500305064063
        0.00501830384381
        0.00503355704698
        0.00504881025015
        0.00506406345333
        0.0050793166565
        0.00509456985967
        0.00510982306284
        0.00512507626602
        0.00514032946919
        0.00515558267236
        0.00517083587553
        0.00518608907871
        0.00520134228188
        0.00521659548505
        0.00523184868822
        0.0052471018914
        0.00526235509457
        0.00527760829774
        0.00529286150092
        0.00530811470409
        0.00532336790726
        0.00533862111043
        0.00535387431361
        0.00536912751678
        0.00538438071995
        0.00539963392312
        0.0054148871263
        0.00543014032947
        0.00544539353264
        0.00546064673581
        0.00547589993899
        0.00549115314216
        0.00550640634533
        0.00552165954851
        0.00553691275168
        0.00555216595485
        0.00556741915802
        0.0055826723612
        0.00559792556437
        0.00561317876754
        0.00562843197071
        0.00564368517389
        0.00565893837706
        0.00567419158023
        0.0056894447834
        0.00570469798658
        0.00571995118975
        0.00573520439292
        0.0057504575961
        0.00576571079927
        0.00578096400244
        0.00579621720561
        0.00581147040879
        0.00582672361196
        0.00584197681513
        0.0058572300183
        0.00587248322148
        0.00588773642465
        0.00590298962782
        0.00591824283099
        0.00593349603417
        0.00594874923734
        0.00596400244051
        0.00597925564369
        0.00599450884686
        0.00600976205003
        0.0060250152532
        0.00604026845638
        0.00605552165955
        0.00607077486272
        0.00608602806589
        0.00610128126907
        0.00611653447224
        0.00613178767541
        0.00614704087858
        0.00616229408176
        0.00617754728493
        0.0061928004881
        0.00620805369128
        0.00622330689445
        0.00623856009762
        0.00625381330079
        0.00626906650397
        0.00628431970714
        0.00629957291031
        0.00631482611348
        0.00633007931666
        0.00634533251983
        0.006360585723
        0.00637583892617
        0.00639109212935
        0.00640634533252
        0.00642159853569
        0.00643685173887
        0.00645210494204
        0.00646735814521
        0.00648261134838
        0.00649786455156
        0.00651311775473
        0.0065283709579
        0.00654362416107
        0.00655887736425
        0.00657413056742
        0.00658938377059
        0.00660463697376
        0.00661989017694
        0.00663514338011
        0.00665039658328
        0.00666564978646
        0.00668090298963
        0.0066961561928
        0.00671140939597
        0.00672666259915
        0.00674191580232
        0.00675716900549
        0.00677242220866
        0.00678767541184
        0.00680292861501
        0.00681818181818
        0.00683343502135
        0.00684868822453
        0.0068639414277
        0.00687919463087
        0.00689444783405
        0.00690970103722
        0.00692495424039
        0.00694020744356
        0.00695546064674
        0.00697071384991
        0.00698596705308
        0.00700122025625
        0.00701647345943
        0.0070317266626
        0.00704697986577
        0.00706223306894
        0.00707748627212
        0.00709273947529
        0.00710799267846
        0.00712324588164
        0.00713849908481
        0.00715375228798
        0.00716900549115
        0.00718425869433
        0.0071995118975
        0.00721476510067
        0.00723001830384
        0.00724527150702
        0.00726052471019
        0.00727577791336
        0.00729103111653
        0.00730628431971
        0.00732153752288
        0.00733679072605
        0.00735204392923
        0.0073672971324
        0.00738255033557
        0.00739780353874
        0.00741305674192
        0.00742830994509
        0.00744356314826
        0.00745881635143
        0.00747406955461
        0.00748932275778
        0.00750457596095
        0.00751982916412
        0.0075350823673
        0.00755033557047
        0.00756558877364
        0.00758084197682
        0.00759609517999
        0.00761134838316
        0.00762660158633
        0.00764185478951
        0.00765710799268
        0.00767236119585
        0.00768761439902
        0.0077028676022
        0.00771812080537
        0.00773337400854
        0.00774862721171
        0.00776388041489
        0.00777913361806
        0.00779438682123
        0.00780964002441
        0.00782489322758
        0.00784014643075
        0.00785539963392
        0.0078706528371
        0.00788590604027
        0.00790115924344
        0.00791641244661
        0.00793166564979
        0.00794691885296
        0.00796217205613
        0.0079774252593
        0.00799267846248
        0.00800793166565
        0.00802318486882
        0.008038438072
        0.00805369127517
        0.00806894447834
        0.00808419768151
        0.00809945088469
        0.00811470408786
        0.00812995729103
        0.0081452104942
        0.00816046369738
        0.00817571690055
        0.00819097010372
        0.00820622330689
        0.00822147651007
        0.00823672971324
        0.00825198291641
        0.00826723611959
        0.00828248932276
        0.00829774252593
        0.0083129957291
        0.00832824893228
        0.00834350213545
        0.00835875533862
        0.00837400854179
        0.00838926174497
        0.00840451494814
        0.00841976815131
        0.00843502135448
        0.00845027455766
        0.00846552776083
        0.008480780964
        0.00849603416718
        0.00851128737035
        0.00852654057352
        0.00854179377669
        0.00855704697987
        0.00857230018304
        0.00858755338621
        0.00860280658938
        0.00861805979256
        0.00863331299573
        0.0086485661989
        0.00866381940207
        0.00867907260525
        0.00869432580842
        0.00870957901159
        0.00872483221477
        0.00874008541794
        0.00875533862111
        0.00877059182428
        0.00878584502746
        0.00880109823063
        0.0088163514338
        0.00883160463697
        0.00884685784015
        0.00886211104332
        0.00887736424649
        0.00889261744966
        0.00890787065284
        0.00892312385601
        0.00893837705918
        0.00895363026236
        0.00896888346553
        0.0089841366687
        0.00899938987187
        0.00901464307505
        0.00902989627822
        0.00904514948139
        0.00906040268456
        0.00907565588774
        0.00909090909091
        0.00910616229408
        0.00912141549725
        0.00913666870043
        0.0091519219036
        0.00916717510677
        0.00918242830995
        0.00919768151312
        0.00921293471629
        0.00922818791946
        0.00924344112264
        0.00925869432581
        0.00927394752898
        0.00928920073215
        0.00930445393533
        0.0093197071385
        0.00933496034167
        0.00935021354484
        0.00936546674802
        0.00938071995119
        0.00939597315436
        0.00941122635754
        0.00942647956071
        0.00944173276388
        0.00945698596705
        0.00947223917023
        0.0094874923734
        0.00950274557657
        0.00951799877974
        0.00953325198292
        0.00954850518609
        0.00956375838926
        0.00957901159243
        0.00959426479561
        0.00960951799878
        0.00962477120195
        0.00964002440513
        0.0096552776083
        0.00967053081147
        0.00968578401464
        0.00970103721782
        0.00971629042099
        0.00973154362416
        0.00974679682733
        0.00976205003051
        0.00977730323368
        0.00979255643685
        0.00980780964002
        0.0098230628432
        0.00983831604637
        0.00985356924954
        0.00986882245272
        0.00988407565589
        0.00989932885906
        0.00991458206223
        0.00992983526541
        0.00994508846858
        0.00996034167175
        0.00997559487492
        0.0099908480781
        0.0100061012813
        0.0100213544844
        0.0100366076876
        0.0100518608908
        0.010067114094
        0.0100823672971
        0.0100976205003
        0.0101128737035
        0.0101281269067
        0.0101433801098
        0.010158633313
        0.0101738865162
        0.0101891397193
        0.0102043929225
        0.0102196461257
        0.0102348993289
        0.010250152532
        0.0102654057352
        0.0102806589384
        0.0102959121415
        0.0103111653447
        0.0103264185479
        0.0103416717511
        0.0103569249542
        0.0103721781574
        0.0103874313606
        0.0104026845638
        0.0104179377669
        0.0104331909701
        0.0104484441733
        0.0104636973764
        0.0104789505796
        0.0104942037828
        0.010509456986
        0.0105247101891
        0.0105399633923
        0.0105552165955
        0.0105704697987
        0.0105857230018
        0.010600976205
        0.0106162294082
        0.0106314826113
        0.0106467358145
        0.0106619890177
        0.0106772422209
        0.010692495424
        0.0107077486272
        0.0107230018304
        0.0107382550336
        0.0107535082367
        0.0107687614399
        0.0107840146431
        0.0107992678462
        0.0108145210494
        0.0108297742526
        0.0108450274558
        0.0108602806589
        0.0108755338621
        0.0108907870653
        0.0109060402685
        0.0109212934716
        0.0109365466748
        0.010951799878
        0.0109670530811
        0.0109823062843
        0.0109975594875
        0.0110128126907
        0.0110280658938
        0.011043319097
        0.0110585723002
        0.0110738255034
        0.0110890787065
        0.0111043319097
        0.0111195851129
        0.011134838316
        0.0111500915192
        0.0111653447224
        0.0111805979256
        0.0111958511287
        0.0112111043319
        0.0112263575351
        0.0112416107383
        0.0112568639414
        0.0112721171446
        0.0112873703478
        0.0113026235509
        0.0113178767541
        0.0113331299573
        0.0113483831605
        0.0113636363636
        0.0113788895668
        0.01139414277
        0.0114093959732
        0.0114246491763
        0.0114399023795
        0.0114551555827
        0.0114704087858
        0.011485661989
        0.0115009151922
        0.0115161683954
        0.0115314215985
        0.0115466748017
        0.0115619280049
        0.0115771812081
        0.0115924344112
        0.0116076876144
        0.0116229408176
        0.0116381940207
        0.0116534472239
        0.0116687004271
        0.0116839536303
        0.0116992068334
        0.0117144600366
        0.0117297132398
        0.011744966443
        0.0117602196461
        0.0117754728493
        0.0117907260525
        0.0118059792556
        0.0118212324588
        0.011836485662
        0.0118517388652
        0.0118669920683
        0.0118822452715
        0.0118974984747
        0.0119127516779
        0.011928004881
        0.0119432580842
        0.0119585112874
        0.0119737644905
        0.0119890176937
        0.0120042708969
        0.0120195241001
        0.0120347773032
        0.0120500305064
        0.0120652837096
        0.0120805369128
        0.0120957901159
        0.0121110433191
        0.0121262965223
        0.0121415497254
        0.0121568029286
        0.0121720561318
        0.012187309335
        0.0122025625381
        0.0122178157413
        0.0122330689445
        0.0122483221477
        0.0122635753508
        0.012278828554
        0.0122940817572
        0.0123093349603
        0.0123245881635
        0.0123398413667
        0.0123550945699
        0.012370347773
        0.0123856009762
        0.0124008541794
        0.0124161073826
        0.0124313605857
        0.0124466137889
        0.0124618669921
        0.0124771201952
        0.0124923733984
        0.0125076266016
        0.0125228798048
        0.0125381330079
        0.0125533862111
        0.0125686394143
        0.0125838926174
        0.0125991458206
        0.0126143990238
        0.012629652227
        0.0126449054301
        0.0126601586333
        0.0126754118365
        0.0126906650397
        0.0127059182428
        0.012721171446
        0.0127364246492
        0.0127516778523
        0.0127669310555
        0.0127821842587
        0.0127974374619
        0.012812690665
        0.0128279438682
        0.0128431970714
        0.0128584502746
        0.0128737034777
        0.0128889566809
        0.0129042098841
        0.0129194630872
        0.0129347162904
        0.0129499694936
        0.0129652226968
        0.0129804758999
        0.0129957291031
        0.0130109823063
        0.0130262355095
        0.0130414887126
        0.0130567419158
        0.013071995119
        0.0130872483221
        0.0131025015253
        0.0131177547285
        0.0131330079317
        0.0131482611348
        0.013163514338
        0.0131787675412
        0.0131940207444
        0.0132092739475
        0.0132245271507
        0.0132397803539
        0.013255033557
        0.0132702867602
        0.0132855399634
        0.0133007931666
        0.0133160463697
        0.0133312995729
        0.0133465527761
        0.0133618059793
        0.0133770591824
        0.0133923123856
        0.0134075655888
        0.0134228187919
        0.0134380719951
        0.0134533251983
        0.0134685784015
        0.0134838316046
        0.0134990848078
        0.013514338011
        0.0135295912142
        0.0135448444173
        0.0135600976205
        0.0135753508237
        0.0135906040268
        0.01360585723
        0.0136211104332
        0.0136363636364
        0.0136516168395
        0.0136668700427
        0.0136821232459
        0.0136973764491
        0.0137126296522
        0.0137278828554
        0.0137431360586
        0.0137583892617
        0.0137736424649
        0.0137888956681
        0.0138041488713
        0.0138194020744
        0.0138346552776
        0.0138499084808
        0.013865161684
        0.0138804148871
        0.0138956680903
        0.0139109212935
        0.0139261744966
        0.0139414276998
        0.013956680903
        0.0139719341062
        0.0139871873093
        0.0140024405125
        0.0140176937157
        0.0140329469189
        0.014048200122
        0.0140634533252
        0.0140787065284
        0.0140939597315
        0.0141092129347
        0.0141244661379
        0.0141397193411
        0.0141549725442
        0.0141702257474
        0.0141854789506
        0.0142007321538
        0.0142159853569
        0.0142312385601
        0.0142464917633
        0.0142617449664
        0.0142769981696
        0.0142922513728
        0.014307504576
        0.0143227577791
        0.0143380109823
        0.0143532641855
        0.0143685173887
        0.0143837705918
        0.014399023795
        0.0144142769982
        0.0144295302013
        0.0144447834045
        0.0144600366077
        0.0144752898109
        0.014490543014
        0.0145057962172
        0.0145210494204
        0.0145363026236
        0.0145515558267
        0.0145668090299
        0.0145820622331
        0.0145973154362
        0.0146125686394
        0.0146278218426
        0.0146430750458
        0.0146583282489
        0.0146735814521
        0.0146888346553
        0.0147040878585
        0.0147193410616
        0.0147345942648
        0.014749847468
        0.0147651006711
        0.0147803538743
        0.0147956070775
        0.0148108602807
