luts/lin_to_adobergb_transfer.spi1d
Version 1
From 0 1
Length 65561
Components 1
{
        0.0
        0.00645417751543
        0.0088454784824
        0.0106363163462
        0.0121227669049
        0.0134173703948
        0.0145771180212
        0.0156355383457
        0.0166143050061
        0.0175283721506
        0.018388564745
        0.0192030129106
        0.0199780039337
        0.0207185169418
        0.0214285736125
        0.022111476747
        0.0227699775967
        0.023406396312
        0.0240227106116
        0.0246206223444
        0.0252016083203
        0.0257669597234
        0.0263178130896
        0.0268551749532
        0.0273799416725
        0.0278929155391
        0.0283948179853
        0.0288863005056
        0.0293679537547
        0.029840315183
        0.0303038754841
        0.0307590840744
        0.0312063537755
        0.0316460648361
        0.0320785684052
        0.0325041895431
        0.0329232298455
        0.0333359697372
        0.0337426704875
        0.0341435759846
        0.0345389143057
        0.0349288991092
        0.0353137308735
        0.0356935980034
        0.0360686778185
        0.0364391374424
        0.0368051346003
        0.0371668183398
        0.0375243296818
        0.0378778022102
        0.038227362607
        0.0385731311392
        0.0389152221023
        0.0392537442259
        0.0395888010435
        0.0399204912326
        0.0402489089258
        0.0405741439973
        0.0408962823269
        0.0412154060425
        0.0415315937448
        0.041844920715
        0.0421554591066
        0.0424632781237
        0.042768444186
        0.0430710210828
        0.0433710701157
        0.0436686502315
        0.0439638181466
        0.0442566284629
        0.0445471337757
        0.044835384775
        0.0451214303407
        0.045405317631
        0.0456870921656
        0.0459667979044
        0.0462444773207
        0.0465201714701
        0.046793920056
        0.0470657614905
        0.0473357329522
        0.047603870441
        0.0478702088291
        0.0481347819099
        0.0483976224435
        0.0486587622009
        0.0489182320045
        0.0491760617673
        0.0494322805299
        0.0496869164954
        0.0499399970629
        0.0501915488587
        0.0504415977667
        0.0506901689568
        0.0509372869119
        0.0511829754538
        0.0514272577681
        0.0516701564271
        0.0519116934126
        0.0521518901369
        0.0523907674635
        0.0526283457262
        0.0528646447475
        0.0530996838568
        0.053333481907
        0.0535660572909
        0.0537974279564
        0.0540276114215
        0.0542566247887
        0.0544844847585
        0.054711207642
        0.0549368093742
        0.0551613055253
        0.0553847113127
        0.0556070416118
        0.0558283109665
        0.0560485335998
        0.0562677234232
        0.0564858940462
        0.0567030587855
        0.0569192306736
        0.0571344224672
        0.0573486466552
        0.0575619154665
        0.0577742408776
        0.0579856346196
        0.0581961081853
        0.0584056728358
        0.0586143396069
        0.0588221193157
        0.0590290225659
        0.0592350597545
        0.0594402410763
        0.0596445765306
        0.0598480759251
        0.0600507488821
        0.0602526048424
        0.0604536530708
        0.0606539026601
        0.0608533625359
        0.0610520414605
        0.0612499480372
        0.0614470907144
        0.0616434777894
        0.0618391174119
        0.062034017588
        0.0622281861835
        0.0624216309271
        0.0626143594142
        0.0628063791098
        0.0629976973513
        0.0631883213522
        0.0633782582044
        0.0635675148814
        0.0637560982407
        0.0639440150268
        0.0641312718736
        0.064317875307
        0.0645038317472
        0.0646891475112
        0.064873828815
        0.065057881776
        0.0652413124149
        0.065424126658
        0.0656063303394
        0.0657879292025
        0.0659689289024
        0.0661493350076
        0.0663291530021
        0.0665083882865
        0.0666870461805
        0.0668651319242
        0.0670426506799
        0.0672196075335
        0.0673960074962
        0.0675718555062
        0.0677471564298
        0.0679219150629
        0.068096136133
        0.0682698242996
        0.0684429841564
        0.068615620232
        0.0687877369915
        0.0689593388378
        0.0691304301124
        0.069301015097
        0.0694710980144
        0.0696406830297
        0.0698097742514
        0.0699783757325
        0.0701464914715
        0.0703141254133
        0.0704812814505
        0.0706479634238
        0.0708141751238
        0.0709799202911
        0.0711452026177
        0.0713100257476
        0.0714743932778
        0.0716383087593
        0.0718017756976
        0.0719647975536
        0.0721273777445
        0.0722895196445
        0.0724512265855
        0.0726125018581
        0.0727733487117
        0.072933770356
        0.073093769961
        0.0732533506581
        0.0734125155407
        0.0735712676644
        0.0737296100485
        0.0738875456756
        0.0740450774931
        0.0742022084131
        0.0743589413135
        0.074515279038
        0.0746712243974
        0.0748267801695
        0.0749819490998
        0.0751367339023
        0.0752911372594
        0.0754451618232
        0.0755988102153
        0.0757520850277
        0.075904988823
        0.076057524135
        0.0762096934692
        0.0763614993031
        0.0765129440866
        0.0766640302427
        0.0768147601677
        0.0769651362315
        0.0771151607782
        0.0772648361266
        0.0774141645702
        0.0775631483779
        0.0777117897942
        0.0778600910397
        0.0780080543113
        0.0781556817827
        0.0783029756046
        0.0784499379051
        0.0785965707901
        0.0787428763436
        0.0788888566277
        0.0790345136837
        0.0791798495313
        0.0793248661698
        0.0794695655782
        0.0796139497152
        0.0797580205195
        0.0799017799107
        0.0800452297886
        0.0801883720343
        0.0803312085101
        0.0804737410597
        0.0806159715087
        0.0807579016646
        0.0808995333171
        0.0810408682386
        0.0811819081841
        0.0813226548916
        0.0814631100822
        0.0816032754606
        0.0817431527149
        0.0818827435174
        0.0820220495242
        0.0821610723758
        0.0822998136972
        0.082438275098
        0.0825764581727
        0.0827143645011
        0.0828519956481
        0.0829893531641
        0.0831264385851
        0.0832632534332
        0.0833997992163
        0.0835360774285
        0.0836720895504
        0.0838078370491
        0.0839433213784
        0.0840785439791
        0.0842135062788
        0.0843482096927
        0.0844826556231
        0.0846168454598
        0.0847507805805
        0.0848844623506
        0.0850178921234
        0.0851510712405
        0.0852840010317
        0.0854166828153
        0.085549117898
        0.0856813075753
        0.0858132531316
        0.0859449558401
        0.0860764169632
        0.0862076377526
        0.0863386194491
        0.0864693632833
        0.0865998704752
        0.0867301422345
        0.0868601797609
        0.0869899842441
        0.0871195568635
        0.0872488987892
        0.0873780111813
        0.0875068951905
        0.0876355519577
        0.0877639826148
        0.0878921882844
        0.0880201700797
        0.0881479291051
        0.0882754664559
        0.0884027832188
        0.0885298804714
        0.088656759283
        0.088783420714
        0.0889098658167
        0.0890360956348
        0.0891621112038
        0.0892879135511
        0.0894135036958
        0.0895388826493
        0.0896640514147
        0.0897890109878
        0.089913762356
        0.0900383064997
        0.0901626443913
        0.0902867769958
        0.0904107052708
        0.0905344301666
        0.0906579526262
        0.0907812735855
        0.0909043939732
        0.0910273147109
        0.0911500367135
        0.0912725608888
        0.0913948881378
        0.0915170193549
        0.0916389554276
        0.0917606972371
        0.0918822456578
        0.0920036015579
        0.0921247657988
        0.092245739236
        0.0923665227184
        0.092487117089
        0.0926075231844
        0.0927277418351
        0.0928477738659
        0.0929676200954
        0.0930872813362
        0.0932067583953
        0.0933260520739
        0.0934451631672
        0.093564092465
        0.0936828407515
        0.0938014088052
        0.0939197973992
        0.0940380073011
        0.094156039273
        0.094273894072
        0.0943915724495
        0.094509075152
        0.0946264029206
        0.0947435564913
        0.0948605365952
        0.094977343958
        0.0950939793007
        0.0952104433393
        0.0953267367849
        0.0954428603437
        0.0955588147171
        0.0956746006018
        0.0957902186898
        0.0959056696683
        0.09602095422
        0.0961360730231
        0.0962510267509
        0.0963658160727
        0.0964804416529
        0.0965949041519
        0.0967092042252
        0.0968233425246
        0.096937319697
        0.0970511363856
        0.0971647932289
        0.0972782908615
        0.0973916299138
        0.0975048110121
        0.0976178347787
        0.0977307018317
        0.0978434127854
        0.09795596825
        0.0980683688319
        0.0981806151336
        0.0982927077535
        0.0984046472866
        0.0985164343238
        0.0986280694524
        0.098739553256
        0.0988508863144
        0.0989620692037
        0.0990731024967
        0.0991839867623
        0.0992947225659
        0.0994053104695
        0.0995157510315
        0.0996260448069
        0.0997361923471
        0.0998461942004
        0.0999560509115
        0.100065763022
        0.100175331069
        0.100284755589
        0.100394037112
        0.100503176167
        0.100612173279
        0.100721028969
        0.100829743758
        0.10093831816
        0.101046752687
        0.10115504785
        0.101263204154
        0.101371222103
        0.101479102198
        0.101586844936
        0.10169445081
        0.101801920314
        0.101909253935
        0.102016452159
        0.10212351547
        0.102230444346
        0.102337239266
        0.102443900704
        0.102550429131
        0.102656825017
        0.102763088828
        0.102869221028
        0.102975222076
        0.103081092432
        0.103186832552
        0.103292442887
        0.103397923889
        0.103503276006
        0.103608499682
        0.103713595361
        0.103818563482
        0.103923404484
        0.104028118801
        0.104132706868
        0.104237169113
        0.104341505965
        0.10444571785
        0.104549805191
        0.104653768409
        0.104757607922
        0.104861324146
        0.104964917496
        0.105068388383
        0.105171737217
        0.105274964404
        0.10537807035
        0.105481055456
        0.105583920125
        0.105686664753
        0.105789289738
        0.105891795472
        0.105994182348
        0.106096450756
        0.106198601084
        0.106300633716
        0.106402549036
        0.106504347426
        0.106606029265
        0.106707594931
        0.106809044799
        0.106910379241
        0.10701159863
        0.107112703336
        0.107213693724
        0.107314570162
        0.107415333012
        0.107515982637
        0.107616519396
        0.107716943647
        0.107817255745
        0.107917456047
        0.108017544903
        0.108117522664
        0.108217389679
        0.108317146295
        0.108416792858
        0.10851632971
        0.108615757192
        0.108715075646
        0.108814285409
        0.108913386818
        0.109012380206
        0.109111265908
        0.109210044254
        0.109308715575
        0.109407280198
        0.109505738449
        0.109604090653
        0.109702337133
        0.109800478211
        0.109898514206
        0.109996445437
        0.11009427222
        0.110191994871
        0.110289613702
        0.110387129026
        0.110484541154
        0.110581850393
        0.110679057053
        0.110776161437
        0.110873163851
        0.110970064598
        0.111066863979
        0.111163562293
        0.11126015984
        0.111356656916
        0.111453053818
        0.111549350838
        0.11164554827
        0.111741646405
        0.111837645533
        0.111933545943
        0.112029347922
        0.112125051754
        0.112220657726
        0.11231616612
        0.112411577217
        0.112506891298
        0.112602108643
        0.112697229528
        0.11279225423
        0.112887183024
        0.112982016184
        0.113076753983
        0.113171396692
        0.113265944581
        0.113360397918
        0.113454756971
        0.113549022006
        0.113643193288
        0.113737271082
        0.113831255648
        0.11392514725
        0.114018946147
        0.114112652597
        0.114206266859
        0.114299789189
        0.114393219843
        0.114486559075
        0.114579807137
        0.114672964282
        0.11476603076
        0.114859006822
        0.114951892715
        0.115044688687
        0.115137394984
        0.115230011852
        0.115322539534
        0.115414978274
        0.115507328312
        0.115599589891
        0.115691763249
        0.115783848626
        0.115875846258
        0.115967756383
        0.116059579236
        0.116151315051
        0.116242964062
        0.116334526501
        0.1164260026
        0.116517392588
        0.116608696695
        0.11669991515
        0.116791048179
        0.116882096009
        0.116973058866
        0.117063936973
        0.117154730555
        0.117245439833
        0.117336065029
        0.117426606363
        0.117517064055
        0.117607438324
        0.117697729388
        0.117787937462
        0.117878062763
        0.117968105505
        0.118058065904
        0.11814794417
        0.118237740518
        0.118327455158
        0.1184170883
        0.118506640154
        0.118596110928
        0.11868550083
        0.118774810068
        0.118864038846
        0.11895318737
        0.119042255844
        0.119131244471
        0.119220153455
        0.119308982996
        0.119397733296
        0.119486404554
        0.11957499697
        0.119663510742
        0.119751946068
        0.119840303143
        0.119928582165
        0.120016783328
        0.120104906827
        0.120192952854
        0.120280921604
        0.120368813266
        0.120456628034
        0.120544366096
        0.120632027643
        0.120719612864
        0.120807121946
        0.120894555077
        0.120981912442
        0.121069194229
        0.121156400622
        0.121243531805
        0.121330587962
        0.121417569276
        0.121504475928
        0.1215913081
        0.121678065972
        0.121764749725
        0.121851359538
        0.121937895589
        0.122024358055
        0.122110747115
        0.122197062943
        0.122283305716
        0.12236947561
        0.122455572797
        0.122541597452
        0.122627549747
        0.122713429855
        0.122799237948
        0.122884974195
        0.122970638768
        0.123056231836
        0.123141753567
        0.123227204131
        0.123312583694
        0.123397892424
        0.123483130487
        0.123568298048
        0.123653395272
        0.123738422324
        0.123823379368
        0.123908266567
        0.123993084082
        0.124077832077
        0.124162510712
        0.124247120148
        0.124331660544
        0.124416132061
        0.124500534857
        0.12458486909
        0.124669134918
        0.124753332498
        0.124837461987
        0.124921523539
        0.125005517311
        0.125089443457
        0.12517330213
        0.125257093486
        0.125340817676
        0.125424474852
        0.125508065168
        0.125591588773
        0.125675045818
        0.125758436455
        0.125841760831
        0.125925019096
        0.126008211399
        0.126091337887
        0.126174398708
        0.126257394009
        0.126340323935
        0.126423188633
        0.126505988248
        0.126588722924
        0.126671392805
        0.126753998035
        0.126836538758
        0.126919015115
        0.127001427249
        0.127083775301
        0.127166059413
        0.127248279724
        0.127330436375
        0.127412529505
        0.127494559253
        0.127576525758
        0.127658429158
        0.12774026959
        0.127822047191
        0.127903762097
        0.127985414445
        0.128067004371
        0.128148532009
        0.128229997493
        0.128311400959
        0.128392742539
        0.128474022366
        0.128555240574
        0.128636397295
        0.12871749266
        0.1287985268
        0.128879499847
        0.12896041193
        0.12904126318
        0.129122053726
        0.129202783697
        0.129283453221
        0.129364062427
        0.129444611443
        0.129525100394
        0.129605529409
        0.129685898614
        0.129766208134
        0.129846458094
        0.129926648621
        0.130006779838
        0.130086851869
        0.130166864839
        0.13024681887
        0.130326714085
        0.130406550608
        0.130486328559
        0.130566048061
        0.130645709234
        0.1307253122
        0.130804857079
        0.130884343991
        0.130963773054
        0.13104314439
        0.131122458115
        0.131201714349
        0.13128091321
        0.131360054815
        0.13143913928
        0.131518166724
        0.131597137262
        0.131676051011
        0.131754908085
        0.1318337086
        0.131912452671
        0.131991140412
        0.132069771938
        0.132148347362
        0.132226866796
        0.132305330356
        0.132383738151
        0.132462090296
        0.132540386901
        0.132618628079
        0.132696813939
        0.132774944593
        0.132853020152
        0.132931040725
        0.133009006421
        0.13308691735
        0.133164773621
        0.133242575343
        0.133320322622
        0.133398015569
        0.133475654289
        0.13355323889
        0.133630769479
        0.133708246161
        0.133785669044
        0.133863038233
        0.133940353834
        0.13401761595
        0.134094824688
        0.134171980151
        0.134249082444
        0.13432613167
        0.134403127933
        0.134480071335
        0.134556961979
        0.134633799969
        0.134710585405
        0.134787318389
        0.134863999024
        0.13494062741
        0.135017203647
        0.135093727836
        0.135170200078
        0.135246620473
        0.135322989118
        0.135399306115
        0.135475571561
        0.135551785556
        0.135627948197
        0.135704059582
        0.13578011981
        0.135856128977
        0.13593208718
        0.136007994517
        0.136083851083
        0.136159656975
        0.136235412288
        0.136311117118
        0.136386771561
        0.13646237571
        0.136537929662
        0.136613433509
        0.136688887347
        0.136764291268
        0.136839645367
        0.136914949737
        0.13699020447
        0.137065409659
        0.137140565396
        0.137215671774
        0.137290728884
        0.137365736818
        0.137440695666
        0.13751560552
        0.137590466471
        0.137665278608
        0.137740042022
        0.137814756803
        0.137889423041
        0.137964040823
        0.13803861024
        0.138113131381
        0.138187604333
        0.138262029185
        0.138336406025
        0.13841073494
        0.138485016018
        0.138559249347
        0.138633435012
        0.138707573101
        0.138781663699
        0.138855706894
        0.138929702771
        0.139003651415
        0.139077552912
        0.139151407347
        0.139225214805
        0.13929897537
        0.139372689126
        0.139446356159
        0.13951997655
        0.139593550385
        0.139667077747
        0.139740558718
        0.139813993382
        0.13988738182
        0.139960724116
        0.140034020352
        0.140107270609
        0.140180474968
        0.140253633513
        0.140326746323
        0.140399813479
        0.140472835063
        0.140545811155
        0.140618741834
        0.140691627181
        0.140764467276
        0.140837262198
        0.140910012027
        0.140982716841
        0.14105537672
        0.141127991741
        0.141200561984
        0.141273087527
        0.141345568447
        0.141418004823
        0.141490396731
        0.141562744249
        0.141635047454
        0.141707306423
        0.141779521233
        0.141851691959
        0.141923818678
        0.141995901467
        0.1420679404
        0.142139935554
        0.142211887003
        0.142283794823
        0.142355659088
        0.142427479874
        0.142499257254
        0.142570991303
        0.142642682096
        0.142714329705
        0.142785934205
        0.142857495669
        0.14292901417
        0.143000489781
        0.143071922575
        0.143143312624
        0.143214660002
        0.14328596478
        0.14335722703
        0.143428446824
        0.143499624233
        0.14357075933
        0.143641852185
        0.143712902869
        0.143783911453
        0.143854878007
        0.143925802603
        0.14399668531
        0.144067526199
        0.144138325338
        0.144209082798
        0.144279798649
        0.144350472959
        0.144421105798
        0.144491697234
        0.144562247337
        0.144632756174
        0.144703223814
        0.144773650326
        0.144844035776
        0.144914380234
        0.144984683766
        0.14505494644
        0.145125168323
        0.145195349482
        0.145265489984
        0.145335589896
        0.145405649284
        0.145475668215
        0.145545646754
        0.145615584968
        0.145685482922
        0.145755340682
        0.145825158314
        0.145894935882
        0.145964673452
        0.146034371089
        0.146104028857
        0.146173646821
        0.146243225045
        0.146312763594
        0.146382262532
        0.146451721922
        0.146521141828
        0.146590522314
        0.146659863443
        0.146729165279
        0.146798427884
        0.146867651321
        0.146936835653
        0.147005980942
        0.147075087251
        0.147144154642
        0.147213183178
        0.147282172919
        0.147351123928
        0.147420036266
        0.147488909995
        0.147557745176
        0.14762654187
        0.147695300137
        0.147764020039
        0.147832701637
        0.14790134499
        0.147969950159
        0.148038517204
        0.148107046186
        0.148175537163
        0.148243990196
        0.148312405344
        0.148380782666
        0.148449122222
        0.148517424071
        0.148585688271
        0.148653914882
        0.148722103961
        0.148790255568
        0.148858369761
        0.148926446598
        0.148994486136
        0.149062488434
        0.14913045355
        0.14919838154
        0.149266272463
        0.149334126375
        0.149401943334
        0.149469723397
        0.149537466621
        0.149605173061
        0.149672842776
        0.149740475821
        0.149808072252
        0.149875632125
        0.149943155498
        0.150010642424
        0.150078092961
        0.150145507163
        0.150212885086
        0.150280226786
        0.150347532317
        0.150414801734
        0.150482035093
        0.150549232447
        0.150616393852
        0.150683519363
        0.150750609032
        0.150817662915
        0.150884681066
        0.150951663538
        0.151018610386
        0.151085521662
