luts/rec709fr.spi1d
Version 1
From 0.0 1.0
Length 4101
Components 1
{
        0.0
        5.42005420054e-05
        0.000108401084011
        0.000162601626016
        0.000216802168022
        0.000271002710027
        0.000325203252033
        0.000379403794038
        0.000433604336043
        0.000487804878049
        0.000542005420054
        0.00059620596206
        0.000650406504065
        0.00070460704607
        0.000758807588076
        0.000813008130081
        0.000867208672087
        0.000921409214092
        0.000975609756098
        0.0010298102981
        0.00108401084011
        0.00113821138211
        0.00119241192412
        0.00124661246612
        0.00130081300813
        0.00135501355014
        0.00140921409214
        0.00146341463415
        0.00151761517615
        0.00157181571816
        0.00162601626016
        0.00168021680217
        0.00173441734417
        0.00178861788618
        0.00184281842818
        0.00189701897019
        0.0019512195122
        0.0020054200542
        0.00205962059621
        0.00211382113821
        0.00216802168022
        0.00222222222222
        0.00227642276423
        0.00233062330623
        0.00238482384824
        0.00243902439024
        0.00249322493225
        0.00254742547425
        0.00260162601626
        0.00265582655827
        0.00271002710027
        0.00276422764228
        0.00281842818428
        0.00287262872629
        0.00292682926829
        0.0029810298103
        0.0030352303523
        0.00308943089431
        0.00314363143631
        0.00319783197832
        0.00325203252033
        0.00330623306233
        0.00336043360434
        0.00341463414634
        0.00346883468835
        0.00352303523035
        0.00357723577236
        0.00363143631436
        0.00368563685637
        0.00373983739837
        0.00379403794038
        0.00384823848238
        0.00390243902439
        0.0039566395664
        0.0040108401084
        0.00406504065041
        0.00411924119241
        0.00417344173442
        0.00422764227642
        0.00428184281843
        0.00433604336043
        0.00439024390244
        0.00444444444444
        0.00449864498645
        0.00455284552846
        0.00460704607046
        0.00466124661247
        0.00471544715447
        0.00476964769648
        0.00482384823848
        0.00487804878049
        0.00493224932249
        0.0049864498645
        0.0050406504065
        0.00509485094851
        0.00514905149051
        0.00520325203252
        0.00525745257453
        0.00531165311653
        0.00536585365854
        0.00542005420054
        0.00547425474255
        0.00552845528455
        0.00558265582656
        0.00563685636856
        0.00569105691057
        0.00574525745257
        0.00579945799458
        0.00585365853659
        0.00590785907859
        0.0059620596206
        0.0060162601626
        0.00607046070461
        0.00612466124661
        0.00617886178862
        0.00623306233062
        0.00628726287263
        0.00634146341463
        0.00639566395664
        0.00644986449864
        0.00650406504065
        0.00655826558266
        0.00661246612466
        0.00666666666667
        0.00672086720867
        0.00677506775068
        0.00682926829268
        0.00688346883469
        0.00693766937669
        0.0069918699187
        0.0070460704607
        0.00710027100271
        0.00715447154472
        0.00720867208672
        0.00726287262873
        0.00731707317073
        0.00737127371274
        0.00742547425474
        0.00747967479675
        0.00753387533875
        0.00758807588076
        0.00764227642276
        0.00769647696477
        0.00775067750678
        0.00780487804878
        0.00785907859079
        0.00791327913279
        0.0079674796748
        0.0080216802168
        0.00807588075881
        0.00813008130081
        0.00818428184282
        0.00823848238482
        0.00829268292683
        0.00834688346883
        0.00840108401084
        0.00845528455285
        0.00850948509485
        0.00856368563686
        0.00861788617886
        0.00867208672087
        0.00872628726287
        0.00878048780488
        0.00883468834688
        0.00888888888889
        0.00894308943089
        0.0089972899729
        0.00905149051491
        0.00910569105691
        0.00915989159892
        0.00921409214092
        0.00926829268293
        0.00932249322493
        0.00937669376694
        0.00943089430894
        0.00948509485095
        0.00953929539295
        0.00959349593496
        0.00964769647696
        0.00970189701897
        0.00975609756098
        0.00981029810298
        0.00986449864499
        0.00991869918699
        0.009972899729
        0.010027100271
        0.010081300813
        0.010135501355
        0.010189701897
        0.010243902439
        0.010298102981
        0.010352303523
        0.010406504065
        0.010460704607
        0.0105149051491
        0.0105691056911
        0.0106233062331
        0.0106775067751
        0.0107317073171
        0.0107859078591
        0.0108401084011
        0.0108943089431
        0.0109485094851
        0.0110027100271
        0.0110569105691
        0.0111111111111
        0.0111653116531
        0.0112195121951
        0.0112737127371
        0.0113279132791
        0.0113821138211
        0.0114363143631
        0.0114905149051
        0.0115447154472
        0.0115989159892
        0.0116531165312
        0.0117073170732
        0.0117615176152
        0.0118157181572
        0.0118699186992
        0.0119241192412
        0.0119783197832
        0.0120325203252
        0.0120867208672
        0.0121409214092
        0.0121951219512
        0.0122493224932
        0.0123035230352
        0.0123577235772
        0.0124119241192
        0.0124661246612
        0.0125203252033
        0.0125745257453
        0.0126287262873
        0.0126829268293
        0.0127371273713
        0.0127913279133
        0.0128455284553
        0.0128997289973
        0.0129539295393
        0.0130081300813
        0.0130623306233
        0.0131165311653
        0.0131707317073
        0.0132249322493
        0.0132791327913
        0.0133333333333
        0.0133875338753
        0.0134417344173
        0.0134959349593
        0.0135501355014
        0.0136043360434
        0.0136585365854
        0.0137127371274
        0.0137669376694
        0.0138211382114
        0.0138753387534
        0.0139295392954
        0.0139837398374
        0.0140379403794
        0.0140921409214
        0.0141463414634
        0.0142005420054
        0.0142547425474
        0.0143089430894
        0.0143631436314
        0.0144173441734
        0.0144715447154
        0.0145257452575
        0.0145799457995
        0.0146341463415
        0.0146883468835
        0.0147425474255
        0.0147967479675
        0.0148509485095
        0.0149051490515
        0.0149593495935
        0.0150135501355
        0.0150677506775
        0.0151219512195
        0.0151761517615
        0.0152303523035
        0.0152845528455
        0.0153387533875
        0.0153929539295
        0.0154471544715
        0.0155013550136
        0.0155555555556
        0.0156097560976
        0.0156639566396
        0.0157181571816
        0.0157723577236
        0.0158265582656
        0.0158807588076
        0.0159349593496
        0.0159891598916
        0.0160433604336
        0.0160975609756
        0.0161517615176
        0.0162059620596
        0.0162601626016
        0.0163143631436
        0.0163685636856
        0.0164227642276
        0.0164769647696
        0.0165311653117
        0.0165853658537
        0.0166395663957
        0.0166937669377
        0.0167479674797
        0.0168021680217
        0.0168563685637
        0.0169105691057
        0.0169647696477
        0.0170189701897
        0.0170731707317
        0.0171273712737
        0.0171815718157
        0.0172357723577
        0.0172899728997
        0.0173441734417
        0.0173983739837
        0.0174525745257
        0.0175067750678
        0.0175609756098
        0.0176151761518
        0.0176693766938
        0.0177235772358
        0.0177777777778
        0.0178319783198
        0.0178861788618
        0.0179403794038
        0.0179945799458
        0.0179936911126
        0.0180478514242
        0.0181021012757
        0.0181564406941
        0.0182108697062
        0.0182653883389
        0.0183199966189
        0.0183746945731
        0.0184294822281
        0.0184843596106
        0.0185393267474
        0.0185943836651
        0.0186495303904
        0.0187047669497
        0.0187600933698
        0.018815509677
        0.0188710158981
        0.0189266120594
        0.0189822981874
        0.0190380743085
        0.0190939404493
        0.0191498966359
        0.0192059428948
        0.0192620792524
        0.0193183057348
        0.0193746223685
        0.0194310291796
        0.0194875261943
        0.0195441134389
        0.0196007909395
        0.0196575587222
        0.0197144168132
        0.0197713652386
        0.0198284040244
        0.0198855331966
        0.0199427527813
        0.0200000628045
        0.020057463292
        0.0201149542699
        0.020172535764
        0.0202302078002
        0.0202879704043
        0.0203458236023
        0.0204037674198
        0.0204618018827
        0.0205199270167
        0.0205781428476
        0.0206364494009
        0.0206948467025
        0.020753334778
        0.0208119136529
        0.0208705833529
        0.0209293439035
        0.0209881953303
        0.0210471376589
        0.0211061709146
        0.021165295123
        0.0212245103096
        0.0212838164997
        0.0213432137187
        0.0214027019921
        0.0214622813451
        0.0215219518031
        0.0215817133914
        0.0216415661352
        0.0217015100599
        0.0217615451905
        0.0218216715525
        0.0218818891708
        0.0219421980706
        0.0220025982772
        0.0220630898155
        0.0221236727107
        0.0221843469879
        0.0222451126719
        0.022305969788
        0.0223669183609
        0.0224279584158
        0.0224890899775
        0.0225503130709
        0.022611627721
        0.0226730339526
        0.0227345317905
        0.0227961212596
        0.0228578023846
        0.0229195751903
        0.0229814397015
        0.0230433959429
        0.0231054439392
        0.023167583715
        0.0232298152951
        0.023292138704
        0.0233545539663
        0.0234170611067
        0.0234796601497
        0.0235423511198
        0.0236051340416
        0.0236680089395
        0.023730975838
        0.0237940347616
        0.0238571857347
        0.0239204287817
        0.0239837639269
        0.0240471911948
        0.0241107106096
        0.0241743221956
        0.0242380259773
        0.0243018219787
        0.0243657102243
        0.0244296907381
        0.0244937635444
        0.0245579286673
        0.0246221861311
        0.0246865359598
        0.0247509781776
        0.0248155128086
        0.0248801398768
        0.0249448594062
        0.0250096714209
        0.025074575945
        0.0251395730023
        0.0252046626168
        0.0252698448125
        0.0253351196132
        0.025400487043
        0.0254659471256
        0.0255314998848
        0.0255971453446
        0.0256628835288
        0.025728714461
        0.0257946381652
        0.0258606546649
        0.025926763984
        0.0259929661462
        0.0260592611751
        0.0261256490943
        0.0261921299276
        0.0262587036985
        0.0263253704307
        0.0263921301477
        0.026458982873
        0.0265259286302
        0.0265929674429
        0.0266600993344
        0.0267273243283
        0.0267946424481
        0.026862053717
        0.0269295581587
        0.0269971557963
        0.0270648466534
        0.0271326307533
        0.0272005081192
        0.0272684787745
        0.0273365427425
        0.0274047000464
        0.0274729507096
        0.0275412947551
        0.0276097322062
        0.0276782630862
        0.0277468874181
        0.0278156052251
        0.0278844165304
        0.027953321357
        0.028022319728
        0.0280914116665
        0.0281605971956
        0.0282298763382
        0.0282992491173
        0.028368715556
        0.0284382756772
        0.0285079295039
        0.028577677059
        0.0286475183653
        0.0287174534458
        0.0287874823234
        0.0288576050208
        0.028927821561
        0.0289981319667
        0.0290685362607
        0.0291390344658
        0.0292096266048
        0.0292803127003
        0.0293510927751
        0.0294219668519
        0.0294929349533
        0.029563997102
        0.0296351533207
        0.0297064036319
        0.0297777480583
        0.0298491866225
        0.0299207193469
        0.0299923462541
        0.0300640673667
        0.0301358827072
        0.030207792298
        0.0302797961616
        0.0303518943205
        0.0304240867971
        0.0304963736137
        0.0305687547929
        0.0306412303569
        0.0307138003281
        0.0307864647289
        0.0308592235815
        0.0309320769083
        0.0310050247315
        0.0310780670735
        0.0311512039564
        0.0312244354024
        0.0312977614339
        0.0313711820729
        0.0314446973417
        0.0315183072623
        0.031592011857
        0.0316658111478
        0.0317397051569
        0.0318136939063
        0.031887777418
        0.0319619557142
        0.0320362288168
        0.0321105967479
        0.0321850595295
        0.0322596171834
        0.0323342697318
        0.0324090171964
        0.0324838595993
        0.0325587969623
        0.0326338293074
        0.0327089566563
        0.032784179031
        0.0328594964532
        0.0329349089448
        0.0330104165276
        0.0330860192233
        0.0331617170537
        0.0332375100406
        0.0333133982057
        0.0333893815707
        0.0334654601572
        0.033541633987
        0.0336179030817
        0.033694267463
        0.0337707271524
        0.0338472821717
        0.0339239325423
        0.0340006782858
        0.0340775194238
        0.0341544559779
        0.0342314879695
        0.0343086154202
        0.0343858383514
        0.0344631567846
        0.0345405707413
        0.0346180802429
        0.0346956853108
        0.0347733859665
        0.0348511822312
        0.0349290741264
        0.0350070616735
        0.0350851448937
        0.0351633238083
        0.0352415984388
        0.0353199688063
        0.0353984349322
        0.0354769968376
        0.0355556545439
        0.0356344080722
        0.0357132574438
        0.0357922026798
        0.0358712438014
        0.0359503808297
        0.036029613786
        0.0361089426912
        0.0361883675666
        0.0362678884332
        0.0363475053121
        0.0364272182243
        0.0365070271909
        0.0365869322328
        0.0366669333712
        0.036747030627
        0.0368272240212
        0.0369075135747
        0.0369878993085
        0.0370683812435
        0.0371489594006
        0.0372296338007
        0.0373104044647
        0.0373912714135
        0.0374722346679
        0.0375532942487
        0.0376344501768
        0.037715702473
        0.037797051158
        0.0378784962526
        0.0379600377776
        0.0380416757536
        0.0381234102016
        0.038205241142
        0.0382871685957
        0.0383691925833
        0.0384513131255
        0.0385335302428
        0.0386158439561
        0.0386982542857
        0.0387807612525
        0.0388633648769
        0.0389460651794
        0.0390288621808
        0.0391117559014
        0.0391947463619
        0.0392778335827
        0.0393610175843
        0.0394442983873
        0.0395276760119
        0.0396111504788
        0.0396947218084
        0.039778390021
        0.039862155137
        0.0399460171769
        0.040029976161
        0.0401140321097
        0.0401981850433
        0.0402824349822
        0.0403667819466
        0.0404512259568
        0.0405357670332
        0.040620405196
        0.0407051404654
        0.0407899728617
        0.0408749024052
        0.0409599291159
        0.0410450530142
        0.0411302741202
        0.041215592454
        0.0413010080358
        0.0413865208858
        0.041472131024
        0.0415578384706
        0.0416436432457
        0.0417295453693
        0.0418155448615
        0.0419016417424
        0.0419878360319
        0.0420741277501
        0.0421605169171
        0.0422470035527
        0.042333587677
        0.04242026931
        0.0425070484715
        0.0425939251815
        0.04268089946
        0.0427679713268
        0.0428551408018
        0.0429424079049
        0.043029772656
        0.0431172350749
        0.0432047951815
        0.0432924529955
        0.0433802085368
        0.0434680618251
        0.0435560128803
        0.0436440617221
        0.0437322083703
        0.0438204528445
        0.0439087951646
        0.0439972353502
        0.044085773421
        0.0441744093967
        0.0442631432969
        0.0443519751414
        0.0444409049497
        0.0445299327415
        0.0446190585364
        0.044708282354
        0.0447976042138
        0.0448870241355
        0.0449765421386
        0.0450661582426
        0.0451558724671
        0.0452456848315
        0.0453355953555
        0.0454256040584
        0.0455157109598
        0.0456059160791
        0.0456962194357
        0.0457866210492
        0.0458771209388
        0.0459677191241
        0.0460584156244
        0.0461492104591
        0.0462401036475
        0.0463310952091
        0.0464221851631
        0.046513373529
        0.0466046603259
        0.0466960455732
        0.0467875292902
        0.0468791114962
        0.0469707922104
        0.047062571452
        0.0471544492404
        0.0472464255947
        0.0473385005342
        0.047430674078
        0.0475229462453
        0.0476153170553
        0.0477077865271
        0.0478003546799
        0.0478930215329
        0.0479857871051
        0.0480786514156
        0.0481716144835
        0.048264676328
        0.048357836968
        0.0484510964227
        0.048544454711
        0.048637911852
        0.0487314678648
        0.0488251227682
        0.0489188765814
        0.0490127293232
        0.0491066810127
        0.0492007316688
        0.0492948813104
        0.0493891299564
        0.0494834776259
        0.0495779243375
        0.0496724701104
        0.0497671149633
        0.049861858915
        0.0499567019846
        0.0500516441907
        0.0501466855522
        0.0502418260879
        0.0503370658166
        0.0504324047572
        0.0505278429283
        0.0506233803487
        0.0507190170373
        0.0508147530127
        0.0509105882936
        0.0510065228988
        0.051102556847
        0.0511986901568
        0.051294922847
        0.0513912549362
        0.051487686443
        0.0515842173861
        0.0516808477841
        0.0517775776556
        0.0518744070193
        0.0519713358936
        0.0520683642973
        0.0521654922489
        0.0522627197669
        0.0523600468698
        0.0524574735762
        0.0525549999046
        0.0526526258736
        0.0527503515015
        0.052848176807
        0.0529461018084
        0.0530441265242
        0.0531422509729
        0.0532404751729
        0.0533387991426
        0.0534372229004
        0.0535357464648
        0.0536343698541
        0.0537330930866
        0.0538319161809
        0.0539308391551
        0.0540298620276
        0.0541289848169
        0.0542282075411
        0.0543275302186
        0.0544269528677
        0.0545264755066
        0.0546260981537
        0.0547258208271
        0.0548256435452
        0.0549255663262
        0.0550255891882
        0.0551257121496
        0.0552259352284
        0.0553262584429
        0.0554266818113
        0.0555272053517
        0.0556278290823
        0.0557285530212
        0.0558293771865
        0.0559303015964
        0.056031326269
        0.0561324512223
        0.0562336764745
        0.0563350020437
        0.0564364279478
        0.0565379542049
        0.0566395808331
        0.0567413078504
        0.0568431352749
        0.0569450631244
        0.0570470914171
        0.0571492201709
        0.0572514494037
        0.0573537791335
        0.0574562093784
        0.0575587401561
        0.0576613714847
        0.057764103382
        0.057866935866
        0.0579698689545
        0.0580729026655
        0.0581760370167
        0.0582792720261
        0.0583826077116
        0.0584860440908
        0.0585895811817
        0.0586932190021
        0.0587969575698
        0.0589007969026
        0.0590047370182
        0.0591087779345
        0.0592129196691
        0.0593171622399
        0.0594215056646
        0.0595259499608
        0.0596304951464
        0.059735141239
        0.0598398882564
        0.0599447362161
        0.0600496851359
        0.0601547350335
        0.0602598859264
        0.0603651378323
        0.060470490769
        0.0605759447539
        0.0606814998046
        0.0607871559389
        0.0608929131742
        0.0609987715282
        0.0611047310184
        0.0612107916623
        0.0613169534776
        0.0614232164817
        0.0615295806921
        0.0616360461264
        0.0617426128021
        0.0618492807367
        0.0619560499476
        0.0620629204523
        0.0621698922684
        0.0622769654131
        0.062384139904
        0.0624914157584
        0.0625987929939
        0.0627062716278
        0.0628138516775
        0.0629215331604
        0.0630293160939
        0.0631372004953
        0.063245186382
        0.0633532737713
        0.0634614626806
        0.0635697531272
        0.0636781451284
        0.0637866387015
        0.0638952338638
        0.0640039306325
        0.0641127290251
        0.0642216290586
        0.0643306307504
        0.0644397341177
        0.0645489391777
        0.0646582459477
        0.0647676544449
        0.0648771646864
        0.0649867766895
        0.0650964904713
        0.0652063060491
        0.0653162234399
        0.0654262426609
        0.0655363637293
        0.0656465866621
        0.0657569114766
        0.0658673381898
        0.0659778668188
        0.0660884973807
        0.0661992298925
        0.0663100643714
        0.0664210008345
        0.0665320392987
        0.0666431797811
        0.0667544222987
        0.0668657668685
        0.0669772135076
        0.067088762233
        0.0672004130616
        0.0673121660104
        0.0674240210965
        0.0675359783366
        0.0676480377479
        0.0677601993472
        0.0678724631515
        0.0679848291777
        0.0680972974427
        0.0682098679634
        0.0683225407567
        0.0684353158395
        0.0685481932286
        0.0686611729409
        0.0687742549933
        0.0688874394026
        0.0690007261857
        0.0691141153593
        0.0692276069403
        0.0693412009454
        0.0694548973915
        0.0695686962954
        0.0696825976739
        0.0697966015436
        0.0699107079213
        0.0700249168239
        0.070139228268
        0.0702536422704
        0.0703681588478
        0.0704827780168
        0.0705974997942
        0.0707123241967
        0.070827251241
        0.0709422809437
        0.0710574133215
        0.071172648391
        0.0712879861689
        0.0714034266718
        0.0715189699163
        0.0716346159191
        0.0717503646967
        0.0718662162658
        0.0719821706429
        0.0720982278446
        0.0722143878875
        0.0723306507881
        0.072447016563
        0.0725634852287
        0.0726800568017
        0.0727967312986
        0.0729135087359
        0.0730303891301
        0.0731473724976
        0.073264458855
        0.0733816482187
        0.0734989406053
        0.073616336031
        0.0737338345124
        0.073851436066
        0.0739691407081
        0.0740869484552
        0.0742048593237
        0.07432287333
