luts/srgb.spi1d
Version 1
From 0.0 1.0
Length 4101
Components 1
{
        0.0
        1.88778977573e-05
        3.77557955146e-05
        5.66336932719e-05
        7.55115910292e-05
        9.43894887865e-05
        0.000113267386544
        0.000132145284301
        0.000151023182058
        0.000169901079816
        0.000188778977573
        0.00020765687533
        0.000226534773088
        0.000245412670845
        0.000264290568602
        0.00028316846636
        0.000302046364117
        0.000320924261874
        0.000339802159632
        0.000358680057389
        0.000377557955146
        0.000396435852903
        0.000415313750661
        0.000434191648418
        0.000453069546175
        0.000471947443933
        0.00049082534169
        0.000509703239447
        0.000528581137205
        0.000547459034962
        0.000566336932719
        0.000585214830476
        0.000604092728234
        0.000622970625991
        0.000641848523748
        0.000660726421506
        0.000679604319263
        0.00069848221702
        0.000717360114778
        0.000736238012535
        0.000755115910292
        0.00077399380805
        0.000792871705807
        0.000811749603564
        0.000830627501321
        0.000849505399079
        0.000868383296836
        0.000887261194593
        0.000906139092351
        0.000925016990108
        0.000943894887865
        0.000962772785623
        0.00098165068338
        0.00100052858114
        0.00101940647889
        0.00103828437665
        0.00105716227441
        0.00107604017217
        0.00109491806992
        0.00111379596768
        0.00113267386544
        0.0011515517632
        0.00117042966095
        0.00118930755871
        0.00120818545647
        0.00122706335422
        0.00124594125198
        0.00126481914974
        0.0012836970475
        0.00130257494525
        0.00132145284301
        0.00134033074077
        0.00135920863853
        0.00137808653628
        0.00139696443404
        0.0014158423318
        0.00143472022956
        0.00145359812731
        0.00147247602507
        0.00149135392283
        0.00151023182058
        0.00152910971834
        0.0015479876161
        0.00156686551386
        0.00158574341161
        0.00160462130937
        0.00162349920713
        0.00164237710489
        0.00166125500264
        0.0016801329004
        0.00169901079816
        0.00171788869591
        0.00173676659367
        0.00175564449143
        0.00177452238919
        0.00179340028694
        0.0018122781847
        0.00183115608246
        0.00185003398022
        0.00186891187797
        0.00188778977573
        0.00190666767349
        0.00192554557125
        0.001944423469
        0.00196330136676
        0.00198217926452
        0.00200105716227
        0.00201993506003
        0.00203881295779
        0.00205769085555
        0.0020765687533
        0.00209544665106
        0.00211432454882
        0.00213320244658
        0.00215208034433
        0.00217095824209
        0.00218983613985
        0.0022087140376
        0.00222759193536
        0.00224646983312
        0.00226534773088
        0.00228422562863
        0.00230310352639
        0.00232198142415
        0.00234085932191
        0.00235973721966
        0.00237861511742
        0.00239749301518
        0.00241637091294
        0.00243524881069
        0.00245412670845
        0.00247300460621
        0.00249188250396
        0.00251076040172
        0.00252963829948
        0.00254851619724
        0.00256739409499
        0.00258627199275
        0.00260514989051
        0.00262402778827
        0.00264290568602
        0.00266178358378
        0.00268066148154
        0.00269953937929
        0.00271841727705
        0.00273729517481
        0.00275617307257
        0.00277505097032
        0.00279392886808
        0.00281280676584
        0.0028316846636
        0.00285056256135
        0.00286944045911
        0.00288831835687
        0.00290719625463
        0.00292607415238
        0.00294495205014
        0.0029638299479
        0.00298270784565
        0.00300158574341
        0.00302046364117
        0.00303934153893
        0.00305821943668
        0.00307709733444
        0.0030959752322
        0.00311485312996
        0.00313378415316
        0.00315302945125
        0.00317234351758
        0.00319172642219
        0.00321117823498
        0.00323069902579
        0.00325028886432
        0.00326994782016
        0.00328967596284
        0.00330947336173
        0.00332934008613
        0.00334927620523
        0.00336928178811
        0.00338935690376
        0.00340950162104
        0.00342971600874
        0.00345000013553
        0.00347035406999
        0.00349077788058
        0.00351127163568
        0.00353183540357
        0.0035524692524
        0.00357317325027
        0.00359394746513
        0.00361479196487
        0.00363570681727
        0.00365669208999
        0.00367774785063
        0.00369887416667
        0.0037200711055
        0.00374133873441
        0.00376267712059
        0.00378408633115
        0.00380556643308
        0.00382711749331
        0.00384873957865
        0.00387043275581
        0.00389219709143
        0.00391403265205
        0.00393593950409
        0.00395791771391
        0.00397996734777
        0.00400208847184
        0.00402428115217
        0.00404654545476
        0.00406888144549
        0.00409128919017
        0.00411376875449
        0.00413632020409
        0.00415894360449
        0.00418163902113
        0.00420440651935
        0.00422724616443
        0.00425015802153
        0.00427314215575
        0.00429619863207
        0.00431932751541
        0.00434252887059
        0.00436580276234
        0.00438914925532
        0.0044125684141
        0.00443606030313
        0.00445962498683
        0.00448326252949
        0.00450697299533
        0.0045307564485
        0.00455461295304
        0.00457854257292
        0.00460254537203
        0.00462662141416
        0.00465077076304
        0.0046749934823
        0.00469928963549
        0.00472365928607
        0.00474810249745
        0.00477261933292
        0.0047972098557
        0.00482187412894
        0.0048466122157
        0.00487142417896
        0.00489631008162
        0.00492126998651
        0.00494630395636
        0.00497141205382
        0.0049965943415
        0.00502185088188
        0.00504718173739
        0.00507258697037
        0.0050980666431
        0.00512362081776
        0.00514924955646
        0.00517495292123
        0.00520073097403
        0.00522658377674
        0.00525251139117
        0.00527851387903
        0.00530459130198
        0.00533074372159
        0.00535697119936
        0.00538327379672
        0.005409651575
        0.00543610459548
        0.00546263291936
        0.00548923660776
        0.00551591572174
        0.00554267032225
        0.00556950047021
        0.00559640622645
        0.00562338765171
        0.00565044480668
        0.00567757775197
        0.0057047865481
        0.00573207125555
        0.00575943193471
        0.00578686864589
        0.00581438144934
        0.00584197040524
        0.00586963557369
        0.00589737701472
        0.00592519478831
        0.00595308895433
        0.00598105957262
        0.00600910670292
        0.00603723040491
        0.00606543073822
        0.00609370776237
        0.00612206153685
        0.00615049212105
        0.00617899957432
        0.00620758395592
        0.00623624532505
        0.00626498374083
        0.00629379926234
        0.00632269194857
        0.00635166185843
        0.0063807090508
        0.00640983358447
        0.00643903551815
        0.00646831491051
        0.00649767182014
        0.00652710630557
        0.00655661842526
        0.00658620823759
        0.0066158758009
        0.00664562117345
        0.00667544441344
        0.006705345579
        0.00673532472819
        0.00676538191902
        0.00679551720942
        0.00682573065727
        0.00685602232038
        0.00688639225649
        0.00691684052328
        0.00694736717837
        0.00697797227931
        0.0070086558836
        0.00703941804865
        0.00707025883185
        0.00710117829048
        0.00713217648179
        0.00716325346295
        0.00719440929108
        0.00722564402324
        0.0072569577164
        0.00728835042751
        0.00731982221343
        0.00735137313096
        0.00738300323686
        0.00741471258781
        0.00744650124042
        0.00747836925127
        0.00751031667686
        0.00754234357362
        0.00757444999795
        0.00760663600616
        0.00763890165452
        0.00767124699923
        0.00770367209644
        0.00773617700222
        0.00776876177262
        0.00780142646358
        0.00783417113102
        0.0078669958308
        0.00789990061869
        0.00793288555044
        0.00796595068172
        0.00799909606815
        0.00803232176527
        0.00806562782861
        0.0080990143136
        0.00813248127562
        0.00816602877001
        0.00819965685204
        0.00823336557692
        0.00826715499982
        0.00830102517584
        0.00833497616003
        0.00836900800736
        0.00840312077279
        0.00843731451118
        0.00847158927737
        0.00850594512611
        0.00854038211212
        0.00857490029005
        0.00860949971451
        0.00864418044004
        0.00867894252114
        0.00871378601223
        0.00874871096771
        0.0087837174419
        0.00881880548907
        0.00885397516344
        0.00888922651919
        0.00892455961041
        0.00895997449117
        0.00899547121547
        0.00903104983727
        0.00906671041045
        0.00910245298887
        0.00913827762632
        0.00917418437653
        0.0092101732932
        0.00924624442995
        0.00928239784036
        0.00931863357797
        0.00935495169626
        0.00939135224864
        0.00942783528848
        0.00946440086912
        0.00950104904382
        0.00953777986579
        0.00957459338821
        0.00961148966418
        0.00964846874678
        0.00968553068901
        0.00972267554385
        0.00975990336419
        0.0097972142029
        0.0098346081128
        0.00987208514664
        0.00990964535713
        0.00994728879693
        0.00998501551866
        0.0100228255749
        0.0100607190181
        0.0100986959007
        0.0101367562753
        0.010174900194
        0.0102131277093
        0.0102514388734
        0.0102898337385
        0.0103283123569
        0.0103668747805
        0.0104055210615
        0.0104442512519
        0.0104830654036
        0.0105219635687
        0.0105609457989
        0.0106000121461
        0.0106391626621
        0.0106783973986
        0.0107177164073
        0.0107571197399
        0.0107966074478
        0.0108361795828
        0.0108758361961
        0.0109155773394
        0.010955403064
        0.0109953134213
        0.0110353084625
        0.011075388239
        0.0111155528019
        0.0111558022025
        0.0111961364918
        0.0112365557209
        0.0112770599408
        0.0113176492026
        0.0113583235571
        0.0113990830554
        0.0114399277481
        0.0114808576861
        0.0115218729202
        0.0115629735011
        0.0116041594794
        0.0116454309058
        0.0116867878309
        0.0117282303051
        0.011769758379
        0.0118113721029
        0.0118530715274
        0.0118948567028
        0.0119367276792
        0.0119786845072
        0.0120207272367
        0.0120628559181
        0.0121050706014
        0.0121473713368
        0.0121897581743
        0.0122322311638
        0.0122747903554
        0.012317435799
        0.0123601675443
        0.0124029856414
        0.0124458901399
        0.0124888810895
        0.0125319585401
        0.0125751225412
        0.0126183731425
        0.0126617103934
        0.0127051343437
        0.0127486450426
        0.0127922425398
        0.0128359268845
        0.0128796981262
        0.0129235563142
        0.0129675014976
        0.0130115337259
        0.0130556530481
        0.0130998595134
        0.0131441531709
        0.0131885340698
        0.0132330022589
        0.0132775577873
        0.013322200704
        0.0133669310578
        0.0134117488977
        0.0134566542723
        0.0135016472306
        0.0135467278211
        0.0135918960928
        0.0136371520941
        0.0136824958738
        0.0137279274803
        0.0137734469623
        0.0138190543682
        0.0138647497464
        0.0139105331455
        0.0139564046137
        0.0140023641995
        0.0140484119511
        0.0140945479167
        0.0141407721446
        0.014187084683
        0.0142334855799
        0.0142799748836
        0.014326552642
        0.0143732189033
        0.0144199737152
        0.0144668171259
        0.0145137491832
        0.0145607699349
        0.014607879429
        0.0146550777132
        0.0147023648351
        0.0147497408427
        0.0147972057834
        0.014844759705
        0.0148924026551
        0.0149401346812
        0.0149879558308
        0.0150358661514
        0.0150838656905
        0.0151319544954
        0.0151801326136
        0.0152284000923
        0.0152767569789
        0.0153252033206
        0.0153737391647
        0.0154223645582
        0.0154710795484
        0.0155198841823
        0.0155687785071
        0.0156177625698
        0.0156668364173
        0.0157160000966
        0.0157652536546
        0.0158145971383
        0.0158640305945
        0.0159135540699
        0.0159631676114
        0.0160128712657
        0.0160626650795
        0.0161125490994
        0.0161625233722
        0.0162125879444
        0.0162627428625
        0.016312988173
        0.0163633239226
        0.0164137501575
        0.0164642669243
        0.0165148742692
        0.0165655722387
        0.0166163608791
        0.0166672402366
        0.0167182103574
        0.0167692712879
        0.016820423074
        0.016871665762
        0.016922999398
        0.016974424028
        0.017025939698
        0.0170775464541
        0.0171292443422
        0.0171810334081
        0.0172329136979
        0.0172848852574
        0.0173369481323
        0.0173891023685
        0.0174413480117
        0.0174936851076
        0.0175461137019
        0.0175986338403
        0.0176512455683
        0.0177039489316
        0.0177567439756
        0.017809630746
        0.0178626092881
        0.0179156796474
        0.0179688418694
        0.0180220959993
        0.0180754420826
        0.0181288801646
        0.0181824102904
        0.0182360325055
        0.0182897468549
        0.0183435533839
        0.0183974521375
        0.018451443161
        0.0185055264993
        0.0185597021975
        0.0186139703007
        0.0186683308538
        0.0187227839017
        0.0187773294894
        0.0188319676618
        0.0188866984636
        0.0189415219397
        0.0189964381349
        0.0190514470939
        0.0191065488614
        0.0191617434822
        0.0192170310009
        0.0192724114621
        0.0193278849103
        0.0193834513902
        0.0194391109463
        0.019494863623
        0.0195507094649
        0.0196066485162
        0.0196626808216
        0.0197188064252
        0.0197750253715
        0.0198313377047
        0.0198877434691
        0.0199442427089
        0.0200008354685
        0.0200575217918
        0.0201143017231
        0.0201711753065
        0.0202281425861
        0.0202852036059
        0.0203423584099
        0.0203996070422
        0.0204569495466
        0.0205143859672
        0.0205719163478
        0.0206295407322
        0.0206872591644
        0.020745071688
        0.020802978347
        0.020860979185
        0.0209190742457
        0.0209772635729
        0.0210355472101
        0.0210939252011
        0.0211523975893
        0.0212109644184
        0.0212696257319
        0.0213283815732
        0.0213872319859
        0.0214461770134
        0.0215052166991
        0.0215643510864
        0.0216235802187
        0.0216829041392
        0.0217423228913
        0.0218018365181
        0.0218614450631
        0.0219211485693
        0.0219809470799
        0.0220408406381
        0.022100829287
        0.0221609130696
        0.0222210920291
        0.0222813662084
        0.0223417356506
        0.0224022003987
        0.0224627604955
        0.0225234159839
        0.022584166907
        0.0226450133074
        0.0227059552281
        0.0227669927118
        0.0228281258014
        0.0228893545394
        0.0229506789687
        0.023012099132
        0.0230736150718
        0.0231352268308
        0.0231969344517
        0.0232587379769
        0.023320637449
        0.0233826329105
        0.023444724404
        0.0235069119718
        0.0235691956563
        0.0236315755001
        0.0236940515454
        0.0237566238346
        0.02381929241
        0.023882057314
        0.0239449185886
        0.0240078762763
        0.0240709304191
        0.0241340810593
        0.024197328239
        0.0242606720004
        0.0243241123855
        0.0243876494363
        0.024451283195
        0.0245150137035
        0.0245788410039
        0.024642765138
        0.0247067861478
        0.0247709040752
        0.0248351189622
        0.0248994308504
        0.0249638397818
        0.0250283457981
        0.0250929489411
        0.0251576492526
        0.0252224467742
        0.0252873415477
        0.0253523336147
        0.0254174230168
        0.0254826097957
        0.0255478939928
        0.0256132756498
        0.0256787548083
        0.0257443315096
        0.0258100057953
        0.0258757777068
        0.0259416472855
        0.0260076145728
        0.0260736796102
        0.0261398424388
        0.0262061031001
        0.0262724616354
        0.0263389180858
        0.0264054724927
        0.0264721248972
        0.0265388753405
        0.0266057238639
        0.0266726705083
        0.026739715315
        0.0268068583249
        0.0268740995793
        0.026941439119
        0.0270088769851
        0.0270764132185
        0.0271440478603
        0.0272117809514
        0.0272796125326
        0.0273475426448
        0.0274155713289
        0.0274836986257
        0.027551924576
        0.0276202492205
        0.0276886726001
        0.0277571947555
        0.0278258157273
        0.0278945355562
        0.0279633542828
        0.0280322719479
        0.028101288592
        0.0281704042556
        0.0282396189793
        0.0283089328037
        0.0283783457692
        0.0284478579163
        0.0285174692855
        0.0285871799171
        0.0286569898516
        0.0287268991294
        0.0287969077908
        0.0288670158762
        0.0289372234257
        0.0290075304798
        0.0290779370787
        0.0291484432625
        0.0292190490715
        0.029289754546
        0.0293605597259
        0.0294314646515
        0.0295024693629
        0.0295735739002
        0.0296447783033
        0.0297160826124
        0.0297874868674
        0.0298589911084
        0.0299305953753
        0.0300022997081
        0.0300741041466
        0.0301460087307
        0.0302180135004
        0.0302901184954
        0.0303623237556
        0.0304346293208
        0.0305070352307
        0.0305795415252
        0.0306521482438
        0.0307248554264
        0.0307976631125
        0.0308705713419
        0.0309435801542
        0.031016689589
        0.0310898996859
        0.0311632104844
        0.031236622024
        0.0313101343444
        0.0313837474849
        0.0314574614851
        0.0315312763844
        0.0316051922222
        0.0316792090378
        0.0317533268708
        0.0318275457604
        0.031901865746
        0.0319762868669
        0.0320508091623
        0.0321254326715
        0.0322001574338
        0.0322749834883
        0.0323499108743
        0.032424939631
        0.0325000697974
        0.0325753014127
        0.032650634516
        0.0327260691464
        0.032801605343
        0.0328772431447
        0.0329529825906
        0.0330288237197
        0.0331047665709
        0.0331808111832
        0.0332569575955
        0.0333332058467
        0.0334095559757
        0.0334860080213
        0.0335625620224
        0.0336392180178
        0.0337159760463
        0.0337928361466
        0.0338697983574
        0.0339468627176
        0.0340240292658
        0.0341012980406
        0.0341786690808
        0.034256142425
        0.0343337181117
        0.0344113961797
        0.0344891766673
        0.0345670596133
        0.0346450450561
        0.0347231330342
        0.0348013235861
        0.0348796167502
        0.0349580125651
        0.0350365110691
        0.0351151123006
        0.035193816298
        0.0352726230996
        0.0353515327438
        0.0354305452689
        0.0355096607131
        0.0355888791148
        0.0356682005122
        0.0357476249434
        0.0358271524468
        0.0359067830605
        0.0359865168227
        0.0360663537714
        0.0361462939448
        0.0362263373811
        0.0363064841182
        0.0363867341943
        0.0364670876473
        0.0365475445153
        0.0366281048364
        0.0367087686483
        0.0367895359892
        0.0368704068969
        0.0369513814093
        0.0370324595644
        0.0371136414
        0.0371949269539
        0.0372763162639
        0.037357809368
        0.0374394063038
        0.0375211071091
        0.0376029118217
        0.0376848204793
        0.0377668331195
        0.0378489497802
        0.0379311704988
        0.0380134953132
        0.0380959242608
        0.0381784573793
        0.0382610947063
        0.0383438362794
        0.038426682136
        0.0385096323137
        0.03859268685
        0.0386758457823
        0.0387591091482
        0.038842476985
        0.0389259493303
        0.0390095262213
        0.0390932076954
        0.0391769937901
        0.0392608845426
        0.0393448799903
        0.0394289801705
        0.0395131851204
        0.0395974948774
        0.0396819094785
        0.0397664289612
        0.0398510533624
        0.0399357827196
        0.0400206170697
        0.04010555645
        0.0401906008975
        0.0402757504494
        0.0403610051427
        0.0404463650145
        0.0405318301019
        0.0406174004418
        0.0407030760713
        0.0407888570273
        0.0408747433468
        0.0409607350668
        0.0410468322242
        0.0411330348558
        0.0412193429986
        0.0413057566895
        0.0413922759652
        0.0414789008627
        0.0415656314186
        0.0416524676699
        0.0417394096532
        0.0418264574054
        0.0419136109631
        0.0420008703631
        0.0420882356421
        0.0421757068367
        0.0422632839836
        0.0423509671194
        0.0424387562808
        0.0425266515043
        0.0426146528266
        0.0427027602841
        0.0427909739135
        0.0428792937512
        0.0429677198337
        0.0430562521976
        0.0431448908794
        0.0432336359153
        0.043322487342
        0.0434114451957
        0.043500509513
        0.0435896803301
        0.0436789576834
        0.0437683416092
        0.0438578321439
        0.0439474293238
        0.0440371331851
        0.0441269437642
        0.0442168610972
        0.0443068852203
        0.0443970161698
        0.0444872539819
        0.0445775986928
        0.0446680503385
        0.0447586089552
        0.0448492745791
        0.0449400472462
        0.0450309269926
        0.0451219138544
        0.0452130078676
        0.0453042090682
        0.0453955174923
        0.0454869331758
        0.0455784561547
        0.0456700864649
        0.0457618241424
        0.0458536692231
        0.0459456217429
        0.0460376817377
        0.0461298492433
        0.0462221242955
        0.0463145069303
        0.0464069971834
        0.0464995950905
        0.0465923006876
        0.0466851140102
        0.0467780350942
